; generated by Slic3r Prusa Edition 1.39.1-prusa3d-win64 on 2018-04-23 at 17:08:43

; Added in generate support (includes "detect bridging perimeters")

; external perimeters extrusion width = 0.45mm
; perimeters extrusion width = 0.45mm
; infill extrusion width = 0.45mm
; solid infill extrusion width = 0.45mm
; top infill extrusion width = 0.40mm
; support material extrusion width = 0.35mm
; first layer extrusion width = 0.42mm

M107
M115 U3.1.1-RC5 ; tell printer latest fw version
M201 X1000 Y1000 Z200 E5000 ; sets maximum accelerations, mm/sec^2
M203 X200 Y200 Z12 E120 ; sets maximum feedrates, mm/sec
M204 S1250 T1250 ; sets acceleration (S) and retract acceleration (T)
M205 X10 Y10 Z0.4 E2.5 ; sets the jerk limits, mm/sec
M205 S0 T0 ; sets the minimum extruding and travel feed rate, mm/sec
M83  ; extruder relative mode
M104 S215 ; set extruder temp
M140 S60 ; set bed temp
M190 S60 ; wait for bed temp
M109 S215 ; wait for extruder temp
G28 W ; home all without mesh bed level
G80 ; mesh bed leveling
G1 Y-3.0 F1000.0 ; go outside print area
G92 E0.0
G1 X60.0 E9.0  F1000.0 ; intro line
G1 X100.0 E12.5  F1000.0 ; intro line
G92 E0.0
M221 S100
M900 K30; Filament gcode
G21 ; set units to millimeters
G90 ; use absolute coordinates
M83 ; use relative distances for extrusion
;BEFORE_LAYER_CHANGE
;0.2


G1 E-1.60000 F2100.00000
G1 Z0.600 F15000.000
;AFTER_LAYER_CHANGE
;0.2
G1 X88.551 Y67.820 F15000.000
G1 Z0.200 F15000.000
G1 E1.60000 F2100.00000
M204 S1000
G1 F1800
G1 X89.476 Y67.623 E0.02966
G1 X160.504 Y67.623 E2.22701
G1 X161.381 Y67.792 E0.02802
G1 X162.131 Y68.271 E0.02790
G1 X162.654 Y68.995 E0.02802
G1 X162.873 Y69.862 E0.02802
G1 X165.784 Y133.870 E2.00902
G1 X165.781 Y144.780 E0.34205
G1 X165.590 Y145.595 E0.02626
G1 X165.129 Y146.294 E0.02626
G1 X164.360 Y146.832 E0.02942
G1 X163.439 Y147.031 E0.02954
G1 X108.350 Y147.031 E1.72728
G1 X87.150 Y146.860 E0.66474
G1 X86.314 Y146.675 E0.02684
G1 X85.598 Y146.205 E0.02684
G1 X85.081 Y145.485 E0.02778
G1 X84.865 Y144.626 E0.02778
G1 X84.861 Y133.839 E0.33823
G1 X87.125 Y69.893 E2.00623
G1 X87.313 Y69.069 E0.02649
G1 X87.779 Y68.360 E0.02661
G1 X88.502 Y67.855 E0.02766
G1 F12000
G1 X89.476 Y67.623 E-0.16649
G1 F12000
G1 X97.618 Y67.623 E-1.35351
G1 E-0.08000 F2100.00000
G1 Z0.800 F15000.000
G1 X87.238 Y133.904 F15000.000
G1 Z0.200 F15000.000
G1 E1.60000 F2100.00000
G1 F1800
G1 X87.238 Y144.484 E0.33175
G1 X87.992 Y144.484 E0.02365
G1 X87.992 Y134.898 E0.30058
G1 X88.746 Y135.652 E0.03344
G1 X88.746 Y144.484 E0.27694
G1 X89.500 Y144.484 E0.02365
G1 X89.500 Y140.459 E0.12623
G1 X90.254 Y140.459 E0.02365
G1 X90.254 Y144.484 E0.12623
G1 X91.008 Y144.484 E0.02365
G1 X91.008 Y140.459 E0.12623
G1 X91.762 Y140.459 E0.02365
G1 X91.762 Y144.484 E0.12623
G1 X92.517 Y144.484 E0.02365
G1 X92.517 Y140.459 E0.12623
G1 X93.271 Y140.459 E0.02365
G1 X93.271 Y144.484 E0.12623
G1 X94.025 Y144.484 E0.02365
G1 X94.025 Y140.459 E0.12623
G1 X94.779 Y140.459 E0.02365
G1 X94.779 Y144.484 E0.12623
G1 X95.533 Y144.484 E0.02365
G1 X95.533 Y140.459 E0.12623
G1 X96.287 Y140.459 E0.02365
G1 X96.287 Y144.484 E0.12623
G1 X97.042 Y144.484 E0.02365
G1 X97.042 Y140.459 E0.12623
G1 X97.796 Y140.459 E0.02365
G1 X97.796 Y144.484 E0.12623
G1 X98.550 Y144.484 E0.02365
G1 X98.550 Y140.459 E0.12623
G1 X99.304 Y140.459 E0.02365
G1 X99.304 Y144.484 E0.12623
G1 X100.058 Y144.484 E0.02365
G1 X100.058 Y140.459 E0.12623
G1 X100.812 Y140.459 E0.02365
G1 X100.812 Y144.484 E0.12623
G1 X101.567 Y144.484 E0.02365
G1 X101.567 Y140.459 E0.12623
G1 X102.321 Y140.459 E0.02365
G1 X102.321 Y144.484 E0.12623
G1 X103.075 Y144.484 E0.02365
G1 X103.075 Y140.459 E0.12623
G1 X103.829 Y140.459 E0.02365
G1 X103.829 Y144.484 E0.12623
G1 X104.583 Y144.484 E0.02365
G1 X104.583 Y140.459 E0.12623
G1 X105.337 Y140.459 E0.02365
G1 X105.337 Y144.484 E0.12623
G1 X106.091 Y144.484 E0.02365
G1 X106.091 Y140.459 E0.12623
G1 X106.846 Y140.459 E0.02365
G1 X106.846 Y144.484 E0.12623
G1 X107.600 Y144.484 E0.02365
G1 X107.600 Y140.459 E0.12623
G1 X108.354 Y140.459 E0.02365
G1 X108.354 Y144.654 E0.13155
G1 F12000
G1 X108.354 Y140.459 E-0.69750
G1 F12000
G1 X107.600 Y140.459 E-0.12538
G1 F12000
G1 X107.600 Y144.484 E-0.66929
G1 F12000
G1 X107.432 Y144.484 E-0.02783
G1 E-0.08000 F2100.00000
G1 Z0.800 F15000.000
G1 X142.291 Y140.289 F15000.000
G1 Z0.200 F15000.000
G1 E1.60000 F2100.00000
G1 F1800
G1 X142.291 Y144.484 E0.13155
G1 X143.045 Y144.484 E0.02365
G1 X143.045 Y140.459 E0.12623
G1 X143.799 Y140.459 E0.02365
G1 X143.799 Y144.484 E0.12623
G1 X144.554 Y144.484 E0.02365
G1 X144.554 Y140.459 E0.12623
G1 X145.308 Y140.459 E0.02365
G1 X145.308 Y144.484 E0.12623
G1 X146.062 Y144.484 E0.02365
G1 X146.062 Y140.459 E0.12623
G1 X146.816 Y140.459 E0.02365
G1 X146.816 Y144.484 E0.12623
G1 X147.570 Y144.484 E0.02365
G1 X147.570 Y140.459 E0.12623
G1 X148.324 Y140.459 E0.02365
G1 X148.324 Y144.484 E0.12623
G1 X149.079 Y144.484 E0.02365
G1 X149.079 Y140.459 E0.12623
G1 X149.833 Y140.459 E0.02365
G1 X149.833 Y144.484 E0.12623
G1 X150.587 Y144.484 E0.02365
G1 X150.587 Y140.459 E0.12623
G1 X151.341 Y140.459 E0.02365
G1 X151.341 Y144.484 E0.12623
G1 X152.095 Y144.484 E0.02365
G1 X152.095 Y140.459 E0.12623
G1 X152.849 Y140.459 E0.02365
G1 X152.849 Y144.484 E0.12623
G1 X153.604 Y144.484 E0.02365
G1 X153.604 Y140.459 E0.12623
G1 X154.358 Y140.459 E0.02365
G1 X154.358 Y144.484 E0.12623
G1 X155.112 Y144.484 E0.02365
G1 X155.112 Y140.459 E0.12623
G1 X155.866 Y140.459 E0.02365
G1 X155.866 Y144.484 E0.12623
G1 X156.620 Y144.484 E0.02365
G1 X156.620 Y140.459 E0.12623
G1 X157.374 Y140.459 E0.02365
G1 X157.374 Y144.484 E0.12623
G1 X158.128 Y144.484 E0.02365
G1 X158.128 Y140.459 E0.12623
G1 X158.883 Y140.459 E0.02365
G1 X158.883 Y144.484 E0.12623
G1 X159.637 Y144.484 E0.02365
G1 X159.637 Y140.459 E0.12623
G1 X160.391 Y140.459 E0.02365
G1 X160.391 Y144.484 E0.12623
G1 X161.145 Y144.484 E0.02365
G1 X161.145 Y133.940 E0.33060
G1 X161.899 Y133.940 E0.02365
G1 X161.899 Y144.484 E0.33060
G1 X162.653 Y144.484 E0.02365
G1 X162.653 Y133.940 E0.33060
G1 X163.408 Y133.940 E0.02365
G1 X163.408 Y144.654 E0.33592
G1 F12000
G1 X163.408 Y135.511 E-1.52000
G1 E-0.08000 F2100.00000
G1 Z0.800 F15000.000
G1 X159.913 Y139.413 F15000.000
G1 Z0.200 F15000.000
G1 E1.60000 F2100.00000
G1 F1800
G1 X90.087 Y139.413 E2.18934
G1 X90.087 Y70.587 E2.15799
G1 X159.913 Y70.587 E2.18934
G1 X159.913 Y139.353 E2.15610
G1 X160.290 Y139.790 F15000.000
G1 F1800
G1 X89.710 Y139.790 E2.21299
G1 X89.710 Y70.210 E2.18163
G1 X160.290 Y70.210 E2.21299
G1 X160.290 Y139.730 E2.17975
G1 X159.903 Y139.687 F15000.000
G1 F12000
G1 X151.147 Y139.738 E-1.52000
G1 E-0.08000 F2100.00000
G1 Z0.800 F15000.000
G1 X159.800 Y71.463 F15000.000
G1 Z0.200 F15000.000
G1 E1.60000 F2100.00000
G1 F1800
G1 X159.206 Y70.870 E0.02635
G1 X158.672 Y70.870 E0.01676
G1 X159.630 Y71.828 E0.04251
G1 X159.630 Y72.361 E0.01676
G1 X158.139 Y70.870 E0.06621
G1 X157.605 Y70.870 E0.01676
G1 X159.630 Y72.895 E0.08991
G1 X159.630 Y73.429 E0.01676
G1 X157.071 Y70.870 E0.11361
G1 X156.537 Y70.870 E0.01676
G1 X159.630 Y73.963 E0.13731
G1 X159.630 Y74.497 E0.01676
G1 X156.003 Y70.870 E0.16101
G1 X155.469 Y70.870 E0.01676
G1 X159.630 Y75.031 E0.18471
G1 X159.630 Y75.565 E0.01676
G1 X154.935 Y70.870 E0.20841
G1 X154.401 Y70.870 E0.01676
G1 X159.630 Y76.099 E0.23211
G1 X159.630 Y76.632 E0.01676
G1 X153.868 Y70.870 E0.25581
G1 X153.334 Y70.870 E0.01676
G1 X159.630 Y77.166 E0.27951
G1 X159.630 Y77.700 E0.01676
G1 X152.800 Y70.870 E0.30321
G1 X152.266 Y70.870 E0.01676
G1 X159.630 Y78.234 E0.32691
G1 X159.630 Y78.768 E0.01676
G1 X151.732 Y70.870 E0.35061
G1 X151.198 Y70.870 E0.01676
G1 X159.630 Y79.302 E0.37431
G1 X159.630 Y79.836 E0.01676
G1 X150.664 Y70.870 E0.39801
G1 X150.130 Y70.870 E0.01676
G1 X159.630 Y80.370 E0.42171
G1 X159.630 Y80.903 E0.01676
G1 X149.597 Y70.870 E0.44541
G1 X149.063 Y70.870 E0.01676
G1 X159.630 Y81.437 E0.46911
G1 X159.630 Y81.971 E0.01676
G1 X148.529 Y70.870 E0.49281
G1 X147.995 Y70.870 E0.01676
G1 X159.630 Y82.505 E0.51651
G1 X159.630 Y83.039 E0.01676
G1 X147.461 Y70.870 E0.54021
G1 X146.927 Y70.870 E0.01676
G1 X159.630 Y83.573 E0.56391
G1 X159.630 Y84.107 E0.01676
G1 X146.393 Y70.870 E0.58761
G1 X145.859 Y70.870 E0.01676
G1 X159.630 Y84.641 E0.61131
G1 X159.630 Y85.175 E0.01676
G1 X145.325 Y70.870 E0.63501
G1 X144.792 Y70.870 E0.01676
G1 X159.630 Y85.708 E0.65871
G1 X159.630 Y86.242 E0.01676
G1 X144.258 Y70.870 E0.68241
G1 X143.724 Y70.870 E0.01676
G1 X159.630 Y86.776 E0.70611
G1 X159.630 Y87.310 E0.01676
G1 X143.190 Y70.870 E0.72981
G1 X142.656 Y70.870 E0.01676
G1 X159.630 Y87.844 E0.75351
G1 X159.630 Y88.378 E0.01676
G1 X142.122 Y70.870 E0.77721
G1 X141.588 Y70.870 E0.01676
G1 X159.630 Y88.912 E0.80091
G1 X159.630 Y89.446 E0.01676
G1 X141.054 Y70.870 E0.82461
G1 X140.521 Y70.870 E0.01676
G1 X159.630 Y89.979 E0.84831
G1 X159.630 Y90.513 E0.01676
G1 X139.987 Y70.870 E0.87201
G1 X139.453 Y70.870 E0.01676
G1 X159.630 Y91.047 E0.89571
G1 X159.630 Y91.581 E0.01676
G1 X138.919 Y70.870 E0.91941
G1 X138.385 Y70.870 E0.01676
G1 X159.630 Y92.115 E0.94311
G1 X159.630 Y92.649 E0.01676
G1 X137.851 Y70.870 E0.96681
G1 X137.317 Y70.870 E0.01676
G1 X159.630 Y93.183 E0.99051
G1 X159.630 Y93.717 E0.01676
G1 X136.783 Y70.870 E1.01421
G1 X136.250 Y70.870 E0.01676
G1 X159.630 Y94.250 E1.03791
G1 X159.630 Y94.784 E0.01676
G1 X135.716 Y70.870 E1.06161
G1 X135.182 Y70.870 E0.01676
G1 X159.630 Y95.318 E1.08531
G1 X159.630 Y95.852 E0.01676
G1 X134.648 Y70.870 E1.10901
G1 X134.114 Y70.870 E0.01676
G1 X159.630 Y96.386 E1.13271
G1 X159.630 Y96.920 E0.01676
G1 X133.580 Y70.870 E1.15641
G1 X133.046 Y70.870 E0.01676
G1 X159.630 Y97.454 E1.18011
G1 X159.630 Y97.988 E0.01676
G1 X132.512 Y70.870 E1.20381
G1 X131.979 Y70.870 E0.01676
G1 X159.630 Y98.521 E1.22751
G1 X159.630 Y99.055 E0.01676
G1 X131.445 Y70.870 E1.25121
G1 X130.911 Y70.870 E0.01676
G1 X159.630 Y99.589 E1.27491
G1 X159.630 Y100.123 E0.01676
G1 X130.377 Y70.870 E1.29861
G1 X129.843 Y70.870 E0.01676
G1 X159.630 Y100.657 E1.32231
G1 X159.630 Y101.191 E0.01676
G1 X129.309 Y70.870 E1.34601
G1 X128.775 Y70.870 E0.01676
G1 X159.630 Y101.725 E1.36971
G1 X159.630 Y102.259 E0.01676
G1 X128.241 Y70.870 E1.39341
G1 X127.708 Y70.870 E0.01676
G1 X159.630 Y102.792 E1.41711
G1 X159.630 Y103.326 E0.01676
G1 X127.174 Y70.870 E1.44081
G1 X126.640 Y70.870 E0.01676
G1 X159.630 Y103.860 E1.46451
G1 X159.630 Y104.394 E0.01676
G1 X126.106 Y70.870 E1.48821
G1 X125.572 Y70.870 E0.01676
G1 X159.630 Y104.928 E1.51191
G1 X159.630 Y105.462 E0.01676
G1 X125.038 Y70.870 E1.53561
G1 X124.504 Y70.870 E0.01676
G1 X159.630 Y105.996 E1.55931
G1 X159.630 Y106.530 E0.01676
G1 X123.970 Y70.870 E1.58301
G1 X123.436 Y70.870 E0.01676
G1 X159.630 Y107.064 E1.60671
G1 X159.630 Y107.597 E0.01676
G1 X122.903 Y70.870 E1.63042
G1 X122.369 Y70.870 E0.01676
G1 X159.630 Y108.131 E1.65412
G1 X159.630 Y108.665 E0.01676
G1 X121.835 Y70.870 E1.67782
G1 X121.301 Y70.870 E0.01676
G1 X159.630 Y109.199 E1.70152
G1 X159.630 Y109.733 E0.01676
G1 X120.767 Y70.870 E1.72522
G1 X120.233 Y70.870 E0.01676
G1 X159.630 Y110.267 E1.74892
G1 X159.630 Y110.801 E0.01676
G1 X119.699 Y70.870 E1.77262
G1 X119.165 Y70.870 E0.01676
G1 X159.630 Y111.335 E1.79632
G1 X159.630 Y111.868 E0.01676
G1 X118.632 Y70.870 E1.82002
G1 X118.098 Y70.870 E0.01676
G1 X159.630 Y112.402 E1.84372
G1 X159.630 Y112.936 E0.01676
G1 X117.564 Y70.870 E1.86742
G1 X117.030 Y70.870 E0.01676
G1 X159.630 Y113.470 E1.89112
G1 X159.630 Y114.004 E0.01676
G1 X116.496 Y70.870 E1.91482
G1 X115.962 Y70.870 E0.01676
G1 X159.630 Y114.538 E1.93852
G1 X159.630 Y115.072 E0.01676
G1 X115.428 Y70.870 E1.96222
G1 X114.894 Y70.870 E0.01676
G1 X159.630 Y115.606 E1.98592
G1 X159.630 Y116.139 E0.01676
G1 X114.361 Y70.870 E2.00962
G1 X113.827 Y70.870 E0.01676
G1 X159.630 Y116.673 E2.03332
G1 X159.630 Y117.207 E0.01676
G1 X113.293 Y70.870 E2.05702
G1 X112.759 Y70.870 E0.01676
G1 X159.630 Y117.741 E2.08072
G1 X159.630 Y118.275 E0.01676
G1 X112.225 Y70.870 E2.10442
G1 X111.691 Y70.870 E0.01676
G1 X159.630 Y118.809 E2.12812
G1 X159.630 Y119.343 E0.01676
G1 X111.157 Y70.870 E2.15182
G1 X110.623 Y70.870 E0.01676
G1 X159.630 Y119.877 E2.17552
G1 X159.630 Y120.410 E0.01676
G1 X110.090 Y70.870 E2.19922
G1 X109.556 Y70.870 E0.01676
G1 X159.630 Y120.944 E2.22292
G1 X159.630 Y121.478 E0.01676
G1 X109.022 Y70.870 E2.24662
G1 X108.488 Y70.870 E0.01676
G1 X159.630 Y122.012 E2.27032
G1 X159.630 Y122.546 E0.01676
G1 X107.954 Y70.870 E2.29402
G1 X107.420 Y70.870 E0.01676
G1 X159.630 Y123.080 E2.31772
G1 X159.630 Y123.614 E0.01676
G1 X106.886 Y70.870 E2.34142
G1 X106.352 Y70.870 E0.01676
G1 X159.630 Y124.148 E2.36512
G1 X159.630 Y124.682 E0.01676
G1 X105.818 Y70.870 E2.38882
G1 X105.285 Y70.870 E0.01676
G1 X159.630 Y125.215 E2.41252
G1 X159.630 Y125.749 E0.01676
G1 X104.751 Y70.870 E2.43622
G1 X104.217 Y70.870 E0.01676
G1 X159.630 Y126.283 E2.45992
G1 X159.630 Y126.817 E0.01676
G1 X103.683 Y70.870 E2.48362
G1 X103.149 Y70.870 E0.01676
G1 X159.630 Y127.351 E2.50732
G1 X159.630 Y127.885 E0.01676
G1 X102.615 Y70.870 E2.53102
G1 X102.081 Y70.870 E0.01676
G1 X159.630 Y128.419 E2.55472
G1 X159.630 Y128.953 E0.01676
G1 X101.547 Y70.870 E2.57842
G1 X101.014 Y70.870 E0.01676
G1 X159.630 Y129.486 E2.60212
G1 X159.630 Y130.020 E0.01676
G1 X100.480 Y70.870 E2.62582
G1 X99.946 Y70.870 E0.01676
G1 X159.630 Y130.554 E2.64952
G1 X159.630 Y131.088 E0.01676
G1 X99.412 Y70.870 E2.67322
G1 X98.878 Y70.870 E0.01676
G1 X159.630 Y131.622 E2.69692
G1 X159.630 Y132.156 E0.01676
G1 X98.344 Y70.870 E2.72062
G1 X97.810 Y70.870 E0.01676
G1 X159.630 Y132.690 E2.74432
G1 X159.630 Y133.224 E0.01676
G1 X97.276 Y70.870 E2.76802
G1 X96.743 Y70.870 E0.01676
G1 X159.630 Y133.757 E2.79172
G1 X159.630 Y134.291 E0.01676
G1 X96.209 Y70.870 E2.81542
G1 X95.675 Y70.870 E0.01676
G1 X159.630 Y134.825 E2.83912
G1 X159.630 Y135.359 E0.01676
G1 X95.141 Y70.870 E2.86282
G1 X94.607 Y70.870 E0.01676
G1 X159.630 Y135.893 E2.88652
G1 X159.630 Y136.427 E0.01676
G1 X94.073 Y70.870 E2.91022
G1 X93.539 Y70.870 E0.01676
G1 X159.630 Y136.961 E2.93392
G1 X159.630 Y137.495 E0.01676
G1 X93.005 Y70.870 E2.95762
G1 X92.472 Y70.870 E0.01676
G1 X159.630 Y138.028 E2.98132
G1 X159.630 Y138.562 E0.01676
G1 X91.938 Y70.870 E3.00502
G1 X91.404 Y70.870 E0.01676
G1 X159.630 Y139.096 E3.02872
G1 X159.630 Y139.130 E0.00106
G1 X159.130 Y139.130 E0.01569
G1 X90.870 Y70.870 E3.03022
G1 X90.370 Y70.870 E0.01570
G1 X90.370 Y70.904 E0.00106
G1 X158.596 Y139.130 E3.02872
G1 X158.062 Y139.130 E0.01676
G1 X90.370 Y71.438 E3.00502
G1 X90.370 Y71.971 E0.01676
G1 X157.529 Y139.130 E2.98132
G1 X156.995 Y139.130 E0.01676
G1 X90.370 Y72.505 E2.95762
G1 X90.370 Y73.039 E0.01676
G1 X156.461 Y139.130 E2.93392
G1 X155.927 Y139.130 E0.01676
G1 X90.370 Y73.573 E2.91022
G1 X90.370 Y74.107 E0.01676
G1 X155.393 Y139.130 E2.88652
G1 X154.859 Y139.130 E0.01676
G1 X90.370 Y74.641 E2.86282
G1 X90.370 Y75.175 E0.01676
G1 X154.325 Y139.130 E2.83912
G1 X153.791 Y139.130 E0.01676
G1 X90.370 Y75.709 E2.81542
G1 X90.370 Y76.242 E0.01676
G1 X153.258 Y139.130 E2.79172
G1 X152.724 Y139.130 E0.01676
G1 X90.370 Y76.776 E2.76802
G1 X90.370 Y77.310 E0.01676
G1 X152.190 Y139.130 E2.74432
G1 X151.656 Y139.130 E0.01676
G1 X90.370 Y77.844 E2.72062
G1 X90.370 Y78.378 E0.01676
G1 X151.122 Y139.130 E2.69692
G1 X150.588 Y139.130 E0.01676
G1 X90.370 Y78.912 E2.67322
G1 X90.370 Y79.446 E0.01676
G1 X150.054 Y139.130 E2.64952
G1 X149.520 Y139.130 E0.01676
G1 X90.370 Y79.980 E2.62582
G1 X90.370 Y80.514 E0.01676
G1 X148.986 Y139.130 E2.60212
G1 X148.453 Y139.130 E0.01676
G1 X90.370 Y81.047 E2.57842
G1 X90.370 Y81.581 E0.01676
G1 X147.919 Y139.130 E2.55472
G1 X147.385 Y139.130 E0.01676
G1 X90.370 Y82.115 E2.53102
G1 X90.370 Y82.649 E0.01676
G1 X146.851 Y139.130 E2.50732
G1 X146.317 Y139.130 E0.01676
G1 X90.370 Y83.183 E2.48362
G1 X90.370 Y83.717 E0.01676
G1 X145.783 Y139.130 E2.45992
G1 X145.249 Y139.130 E0.01676
G1 X90.370 Y84.251 E2.43622
G1 X90.370 Y84.785 E0.01676
G1 X144.715 Y139.130 E2.41252
G1 X144.182 Y139.130 E0.01676
G1 X90.370 Y85.318 E2.38882
G1 X90.370 Y85.852 E0.01676
G1 X143.648 Y139.130 E2.36512
G1 X143.114 Y139.130 E0.01676
