; generated by Slic3r Prusa Edition 1.39.1-prusa3d-win64 on 2018-04-23 at 16:56:37

; Added in generate support (includes "detect bridging perimeters")

; external perimeters extrusion width = 0.45mm
; perimeters extrusion width = 0.45mm
; infill extrusion width = 0.45mm
; solid infill extrusion width = 0.45mm
; top infill extrusion width = 0.40mm
; support material extrusion width = 0.35mm
; first layer extrusion width = 0.42mm

M107
M115 U3.1.1-RC5 ; tell printer latest fw version
M201 X1000 Y1000 Z200 E5000 ; sets maximum accelerations, mm/sec^2
M203 X200 Y200 Z12 E120 ; sets maximum feedrates, mm/sec
M204 S1250 T1250 ; sets acceleration (S) and retract acceleration (T)
M205 X10 Y10 Z0.4 E2.5 ; sets the jerk limits, mm/sec
M205 S0 T0 ; sets the minimum extruding and travel feed rate, mm/sec
M83  ; extruder relative mode
M104 S215 ; set extruder temp
M140 S60 ; set bed temp
M190 S60 ; wait for bed temp
M109 S215 ; wait for extruder temp
G28 W ; home all without mesh bed level
G80 ; mesh bed leveling
G1 Y-3.0 F1000.0 ; go outside print area
G92 E0.0
G1 X60.0 E9.0  F1000.0 ; intro line
G1 X100.0 E12.5  F1000.0 ; intro line
G92 E0.0
M221 S100
M900 K30; Filament gcode
G21 ; set units to millimeters
G90 ; use absolute coordinates
M83 ; use relative distances for extrusion
;BEFORE_LAYER_CHANGE
;0.2


G1 E-1.60000 F2100.00000
G1 Z0.600 F15000.000
;AFTER_LAYER_CHANGE
;0.2
G1 X108.401 Y77.411 F15000.000
G1 Z0.200 F15000.000
G1 E1.60000 F2100.00000
M204 S1000
G1 F1800
G1 X108.722 Y76.821 E0.02107
G1 X109.199 Y76.342 E0.02119
G1 X109.791 Y76.017 E0.02119
G1 X110.451 Y75.872 E0.02119
G1 X116.640 Y75.695 E0.19411
G1 X131.775 Y75.695 E0.47455
G1 X140.531 Y75.911 E0.27464
G1 X141.195 Y76.150 E0.02213
G1 X141.760 Y76.574 E0.02213
G1 X142.175 Y77.145 E0.02213
G1 X142.405 Y77.816 E0.02225
G1 X142.444 Y132.374 E1.71063
G1 X142.293 Y133.201 E0.02637
G1 X141.960 Y133.807 E0.02166
G1 X141.464 Y134.293 E0.02178
G1 X140.852 Y134.613 E0.02166
G1 X140.170 Y134.745 E0.02178
G1 X110.616 Y134.747 E0.92666
G1 X109.796 Y134.597 E0.02614
G1 X109.182 Y134.257 E0.02201
G1 X108.691 Y133.749 E0.02213
G1 X108.372 Y133.120 E0.02213
G1 X108.251 Y132.428 E0.02201
G1 X108.250 Y78.235 E1.69920
G1 X108.390 Y77.470 E0.02437
G1 F12000
G1 X108.722 Y76.821 E-0.12122
G1 F12000
G1 X109.199 Y76.342 E-0.11234
G1 F12000
G1 X109.791 Y76.017 E-0.11234
G1 F12000
G1 X110.451 Y75.872 E-0.11234
G1 F12000
G1 X116.640 Y75.695 E-1.02922
G1 F12000
G1 X116.835 Y75.695 E-0.03255
G1 E-0.08000 F2100.00000
G1 Z0.800 F15000.000
G1 X131.771 Y97.472 F15000.000
G1 Z0.200 F15000.000
G1 E1.60000 F2100.00000
G1 F1800
G1 X131.771 Y97.841 E0.01157
G1 X131.017 Y97.841 E0.02365
G1 X131.017 Y97.642 E0.00625
G1 X130.262 Y97.642 E0.02365
G1 X130.262 Y97.841 E0.00625
G1 X129.508 Y97.841 E0.02365
G1 X129.508 Y97.642 E0.00625
G1 X128.754 Y97.642 E0.02365
G1 X128.754 Y112.800 E0.47527
G1 X129.508 Y112.800 E0.02365
G1 X129.508 Y112.159 E0.02012
G1 X130.262 Y112.159 E0.02365
G1 X130.262 Y112.800 E0.02012
G1 X131.017 Y112.800 E0.02365
G1 X131.017 Y112.159 E0.02012
G1 X131.771 Y112.159 E0.02365
G1 X131.771 Y112.970 E0.02544
G1 F12000
G1 X131.771 Y112.159 E-0.13490
G1 F12000
G1 X131.017 Y112.159 E-0.12538
G1 F12000
G1 X131.017 Y112.800 E-0.10669
G1 F12000
G1 X130.262 Y112.800 E-0.12538
G1 F12000
G1 X130.262 Y112.159 E-0.10669
G1 F12000
G1 X129.508 Y112.159 E-0.12538
G1 F12000
G1 X129.508 Y112.800 E-0.10669
G1 F12000
G1 X128.754 Y112.800 E-0.12538
G1 F12000
G1 X128.754 Y109.411 E-0.56350
G1 E-0.08000 F2100.00000
G1 Z0.800 F15000.000
G1 X133.279 Y112.970 F15000.000
G1 Z0.200 F15000.000
G1 E1.60000 F2100.00000
G1 F1800
G1 X133.279 Y112.159 E0.02544
G1 X134.033 Y112.159 E0.02365
G1 X134.033 Y112.800 E0.02012
G1 X134.787 Y112.800 E0.02365
G1 X134.787 Y112.159 E0.02012
G1 X135.542 Y112.159 E0.02365
G1 X135.542 Y112.800 E0.02012
G1 X136.296 Y112.800 E0.02365
G1 X136.296 Y97.642 E0.47527
G1 X137.050 Y97.642 E0.02365
G1 X137.050 Y112.800 E0.47527
G1 X137.804 Y112.800 E0.02365
G1 X137.804 Y97.642 E0.47527
G1 X138.558 Y97.642 E0.02365
G1 X138.558 Y112.800 E0.47527
G1 X139.312 Y112.800 E0.02365
G1 X139.312 Y97.642 E0.47527
G1 X140.067 Y97.642 E0.02365
G1 X140.067 Y112.970 E0.48059
G1 F12000
G1 X140.067 Y103.827 E-1.52000
G1 E-0.08000 F2100.00000
G1 Z0.800 F15000.000
G1 X135.542 Y106.911 F15000.000
G1 Z0.200 F15000.000
G1 E1.60000 F2100.00000
G1 F1800
G1 X135.542 Y103.259 E0.11452
G1 X134.787 Y103.259 E0.02365
G1 X134.787 Y106.741 E0.10920
G1 X134.033 Y106.741 E0.02365
G1 X134.033 Y103.259 E0.10920
G1 X133.279 Y103.259 E0.02365
G1 X133.279 Y106.911 E0.11452
G1 F12000
G1 X133.279 Y103.259 E-0.60725
G1 F12000
G1 X134.033 Y103.259 E-0.12538
G1 F12000
G1 X134.033 Y106.741 E-0.57904
G1 F12000
G1 X134.787 Y106.741 E-0.12538
G1 F12000
G1 X134.787 Y106.242 E-0.08296
G1 E-0.08000 F2100.00000
G1 Z0.800 F15000.000
G1 X128.000 Y112.970 F15000.000
G1 Z0.200 F15000.000
G1 E1.60000 F2100.00000
G1 F1800
G1 X128.000 Y97.642 E0.48059
G1 X127.246 Y97.642 E0.02365
G1 X127.246 Y112.800 E0.47527
G1 X126.492 Y112.800 E0.02365
G1 X126.492 Y97.642 E0.47527
G1 X125.738 Y97.642 E0.02365
G1 X125.738 Y112.970 E0.48059
G1 F12000
G1 X125.738 Y103.827 E-1.52000
G1 E-0.08000 F2100.00000
G1 Z0.800 F15000.000
G1 X133.279 Y98.011 F15000.000
G1 Z0.200 F15000.000
G1 E1.60000 F2100.00000
G1 F1800
G1 X133.279 Y97.642 E0.01157
G1 X134.033 Y97.642 E0.02365
G1 X134.033 Y97.841 E0.00625
G1 X134.787 Y97.841 E0.02365
G1 X134.787 Y97.642 E0.00625
G1 X135.542 Y97.642 E0.02365
G1 X135.542 Y98.011 E0.01157
G1 F12000
G1 X135.542 Y97.642 E-0.06135
G1 F12000
G1 X134.787 Y97.642 E-0.12538
G1 F12000
G1 X134.787 Y97.841 E-0.03314
G1 F12000
G1 X134.033 Y97.841 E-0.12538
G1 F12000
G1 X134.033 Y97.642 E-0.03314
G1 F12000
G1 X133.279 Y97.642 E-0.12538
G1 F12000
G1 X133.279 Y98.011 E-0.06135
G1 E-1.03489 F2100.00000
G1 Z0.800 F15000.000
G1 X134.968 Y98.887 F15000.000
G1 Z0.200 F15000.000
G1 E1.60000 F2100.00000
G1 F1800
G1 X134.968 Y102.213 E0.10428
G1 X131.968 Y102.213 E0.09406
G1 X131.968 Y107.787 E0.17477
G1 X134.968 Y107.787 E0.09406
G1 X134.968 Y111.113 E0.10428
G1 X130.142 Y111.113 E0.15131
G1 X130.142 Y98.887 E0.38333
G1 X134.908 Y98.887 E0.14943
G1 F12000
G1 X134.968 Y102.213 E-0.55301
G1 F12000
G1 X131.968 Y102.213 E-0.49875
G1 F12000
G1 X131.968 Y105.029 E-0.46824
G1 E-0.08000 F2100.00000
G1 Z0.800 F15000.000
G1 X132.345 Y102.590 F15000.000
G1 Z0.200 F15000.000
G1 E1.60000 F2100.00000
G1 F1800
G1 X132.345 Y107.410 E0.15113
G1 X135.345 Y107.410 E0.09406
G1 X135.345 Y111.490 E0.12793
G1 X129.765 Y111.490 E0.17496
G1 X129.765 Y98.510 E0.40698
G1 X135.345 Y98.510 E0.17496
G1 X135.345 Y102.590 E0.12793
G1 X132.405 Y102.590 E0.09218
G1 X131.964 Y102.713 F15000.000
G1 F12000
G1 X132.345 Y107.410 E-0.80139
G1 F12000
G1 X135.345 Y107.410 E-0.49875
G1 F12000
G1 X135.345 Y108.732 E-0.21986
G1 E-0.08000 F2100.00000
G1 Z0.800 F15000.000
G1 X134.855 Y99.769 F15000.000
G1 Z0.200 F15000.000
G1 E1.60000 F2100.00000
G1 F1800
G1 X134.255 Y99.170 E0.02681
G1 X133.717 Y99.170 E0.01701
G1 X134.685 Y100.138 E0.04328
G1 X134.685 Y100.675 E0.01701
G1 X133.180 Y99.170 E0.06734
G1 X132.642 Y99.170 E0.01701
G1 X134.685 Y101.213 E0.09140
G1 X134.685 Y101.751 E0.01701
G1 X132.104 Y99.170 E0.11546
G1 X131.566 Y99.170 E0.01701
G1 X134.326 Y101.930 E0.12346
G1 X133.788 Y101.930 E0.01701
G1 X131.028 Y99.170 E0.12346
G1 X130.490 Y99.170 E0.01701
G1 X133.250 Y101.930 E0.12346
G1 X132.712 Y101.930 E0.01701
G1 X130.425 Y99.643 E0.10231
G1 X130.425 Y100.180 E0.01701
G1 X132.175 Y101.930 E0.07826
G1 X131.685 Y101.930 E0.01548
G1 X131.685 Y101.979 E0.00153
G1 X130.425 Y100.718 E0.05637
G1 X130.425 Y101.256 E0.01701
G1 X131.685 Y102.517 E0.05637
G1 X131.685 Y103.054 E0.01701
G1 X130.425 Y101.794 E0.05637
G1 X130.425 Y102.332 E0.01701
G1 X131.685 Y103.592 E0.05637
G1 X131.685 Y104.130 E0.01701
G1 X130.425 Y102.870 E0.05637
G1 X130.425 Y103.408 E0.01701
G1 X131.685 Y104.668 E0.05637
G1 X131.685 Y105.206 E0.01701
G1 X130.425 Y103.946 E0.05637
G1 X130.425 Y104.484 E0.01701
G1 X131.685 Y105.744 E0.05637
G1 X131.685 Y106.282 E0.01701
G1 X130.425 Y105.021 E0.05637
G1 X130.425 Y105.559 E0.01701
G1 X131.685 Y106.820 E0.05637
G1 X131.685 Y107.358 E0.01701
G1 X130.425 Y106.097 E0.05637
G1 X130.425 Y106.635 E0.01701
G1 X134.620 Y110.830 E0.18762
G1 X134.685 Y110.830 E0.00206
G1 X134.685 Y110.358 E0.01495
G1 X132.397 Y108.070 E0.10232
G1 X132.935 Y108.070 E0.01701
G1 X134.685 Y109.820 E0.07826
G1 X134.685 Y109.282 E0.01701
G1 X133.473 Y108.070 E0.05420
G1 X134.011 Y108.070 E0.01701
G1 X134.685 Y108.744 E0.03015
G1 X134.685 Y108.206 E0.01701
G1 X134.379 Y107.900 E0.01368
G1 F12000
G1 X134.685 Y108.206 E-0.07190
G1 F12000
G1 X134.685 Y108.744 E-0.08942
G1 F12000
G1 X134.011 Y108.070 E-0.15846
G1 F12000
G1 X133.473 Y108.070 E-0.08942
G1 F12000
G1 X134.685 Y109.282 E-0.28493
G1 F12000
G1 X134.685 Y109.820 E-0.08942
G1 F12000
G1 X132.935 Y108.070 E-0.41140
G1 F12000
G1 X132.397 Y108.070 E-0.08942
G1 F12000
G1 X133.400 Y109.072 E-0.23562
G1 E-0.08000 F2100.00000
G1 Z0.800 F15000.000
G1 X134.252 Y111.000 F15000.000
G1 Z0.200 F15000.000
G1 E1.60000 F2100.00000
G1 F1800
G1 X130.425 Y107.173 E0.17116
G1 X130.425 Y107.711 E0.01701
G1 X133.544 Y110.830 E0.13951
G1 X133.006 Y110.830 E0.01701
G1 X130.425 Y108.249 E0.11545
G1 X130.425 Y108.787 E0.01701
G1 X132.468 Y110.830 E0.09139
G1 X131.930 Y110.830 E0.01701
G1 X130.425 Y109.325 E0.06734
G1 X130.425 Y109.863 E0.01701
G1 X131.392 Y110.830 E0.04328
G1 X130.855 Y110.830 E0.01701
G1 X130.255 Y110.231 E0.02681
G1 F12000
G1 X130.855 Y110.830 E-0.14093
G1 F12000
G1 X131.392 Y110.830 E-0.08942
G1 F12000
G1 X130.425 Y109.863 E-0.22750
G1 F12000
G1 X130.425 Y109.325 E-0.08942
G1 F12000
G1 X131.930 Y110.830 E-0.35397
G1 F12000
G1 X132.468 Y110.830 E-0.08942
G1 F12000
G1 X130.425 Y108.787 E-0.48043
G1 F12000
G1 X130.425 Y108.493 E-0.04890
G1 E-0.08000 F2100.00000
G1 Z0.800 F15000.000
G1 X124.957 Y112.970 F15000.000
G1 Z0.200 F15000.000
G1 E1.60000 F2100.00000
G1 F1800
G1 X124.957 Y97.642 E0.48059
G1 X124.202 Y97.642 E0.02365
G1 X124.202 Y112.800 E0.47527
G1 X123.448 Y112.800 E0.02365
G1 X123.448 Y97.642 E0.47527
G1 X122.694 Y97.642 E0.02365
G1 X122.694 Y112.800 E0.47527
G1 X121.940 Y112.800 E0.02365
G1 X121.940 Y97.642 E0.47527
G1 X121.186 Y97.642 E0.02365
G1 X121.186 Y112.800 E0.47527
G1 X120.432 Y112.800 E0.02365
G1 X120.432 Y112.159 E0.02012
G1 X119.677 Y112.159 E0.02365
G1 X119.677 Y112.800 E0.02012
G1 X118.923 Y112.800 E0.02365
G1 X118.923 Y112.159 E0.02012
G1 X118.169 Y112.159 E0.02365
G1 X118.169 Y112.970 E0.02544
G1 F12000
G1 X118.169 Y112.159 E-0.13490
G1 F12000
G1 X118.923 Y112.159 E-0.12538
G1 F12000
G1 X118.923 Y112.800 E-0.10669
G1 F12000
G1 X119.677 Y112.800 E-0.12538
G1 F12000
G1 X119.677 Y112.159 E-0.10669
G1 F12000
G1 X120.432 Y112.159 E-0.12538
G1 F12000
G1 X120.432 Y112.800 E-0.10669
G1 F12000
G1 X121.186 Y112.800 E-0.12538
G1 F12000
G1 X121.186 Y109.411 E-0.56350
G1 E-0.08000 F2100.00000
G1 Z0.800 F15000.000
G1 X116.661 Y112.970 F15000.000
G1 Z0.200 F15000.000
G1 E1.60000 F2100.00000
G1 F1800
G1 X116.661 Y112.159 E0.02544
G1 X115.907 Y112.159 E0.02365
G1 X115.907 Y112.800 E0.02012
G1 X115.152 Y112.800 E0.02365
G1 X115.152 Y112.159 E0.02012
G1 X114.398 Y112.159 E0.02365
G1 X114.398 Y112.800 E0.02012
G1 X113.644 Y112.800 E0.02365
G1 X113.644 Y97.642 E0.47527
G1 X114.398 Y97.642 E0.02365
G1 X114.398 Y97.841 E0.00625
G1 X115.152 Y97.841 E0.02365
G1 X115.152 Y97.642 E0.00625
G1 X115.907 Y97.642 E0.02365
G1 X115.907 Y97.841 E0.00625
G1 X116.661 Y97.841 E0.02365
G1 X116.661 Y97.472 E0.01157
G1 F12000
G1 X116.661 Y97.841 E-0.06135
G1 F12000
G1 X115.907 Y97.841 E-0.12538
G1 F12000
G1 X115.907 Y97.642 E-0.03314
G1 F12000
G1 X115.152 Y97.642 E-0.12538
G1 F12000
G1 X115.152 Y97.841 E-0.03314
G1 F12000
G1 X114.398 Y97.841 E-0.12538
G1 F12000
G1 X114.398 Y97.642 E-0.03314
G1 F12000
G1 X113.644 Y97.642 E-0.12538
G1 F12000
G1 X113.644 Y102.801 E-0.85772
G1 E-0.08000 F2100.00000
G1 Z0.800 F15000.000
G1 X118.169 Y98.011 F15000.000
G1 Z0.200 F15000.000
G1 E1.60000 F2100.00000
G1 F1800
G1 X118.169 Y97.642 E0.01157
G1 X118.923 Y97.642 E0.02365
G1 X118.923 Y97.841 E0.00625
G1 X119.677 Y97.841 E0.02365
G1 X119.677 Y97.642 E0.00625
G1 X120.432 Y97.642 E0.02365
G1 X120.432 Y98.011 E0.01157
G1 F12000
G1 X120.432 Y97.642 E-0.06135
G1 F12000
G1 X119.677 Y97.642 E-0.12538
G1 F12000
G1 X119.677 Y97.841 E-0.03314
G1 F12000
G1 X118.923 Y97.841 E-0.12538
G1 F12000
G1 X118.923 Y97.642 E-0.03314
G1 F12000
G1 X118.169 Y97.642 E-0.12538
G1 F12000
G1 X118.169 Y98.011 E-0.06135
G1 E-1.03489 F2100.00000
G1 Z0.800 F15000.000
G1 X120.432 Y106.911 F15000.000
G1 Z0.200 F15000.000
G1 E1.60000 F2100.00000
G1 F1800
G1 X120.432 Y103.259 E0.11452
G1 X119.677 Y103.259 E0.02365
G1 X119.677 Y106.741 E0.10920
G1 X118.923 Y106.741 E0.02365
G1 X118.923 Y103.259 E0.10920
G1 X118.169 Y103.259 E0.02365
G1 X118.169 Y106.911 E0.11452
G1 F12000
G1 X118.169 Y103.259 E-0.60725
G1 F12000
G1 X118.923 Y103.259 E-0.12538
G1 F12000
G1 X118.923 Y106.741 E-0.57904
G1 F12000
G1 X119.677 Y106.741 E-0.12538
G1 F12000
G1 X119.677 Y106.242 E-0.08296
G1 E-0.08000 F2100.00000
G1 Z0.800 F15000.000
G1 X112.890 Y112.970 F15000.000
G1 Z0.200 F15000.000
G1 E1.60000 F2100.00000
G1 F1800
G1 X112.890 Y97.642 E0.48059
G1 X112.136 Y97.642 E0.02365
G1 X112.136 Y112.800 E0.47527
G1 X111.382 Y112.800 E0.02365
G1 X111.382 Y97.642 E0.47527
G1 X110.628 Y97.642 E0.02365
G1 X110.628 Y112.970 E0.48059
G1 F12000
G1 X110.628 Y103.827 E-1.52000
G1 E-0.08000 F2100.00000
G1 Z0.800 F15000.000
G1 X115.032 Y111.113 F15000.000
G1 Z0.200 F15000.000
G1 E1.60000 F2100.00000
G1 F1800
G1 X115.032 Y98.887 E0.38333
G1 X119.858 Y98.887 E0.15131
G1 X119.858 Y102.213 E0.10428
G1 X116.858 Y102.213 E0.09406
G1 X116.858 Y107.787 E0.17477
G1 X119.858 Y107.787 E0.09406
G1 X119.858 Y111.113 E0.10428
G1 X115.092 Y111.113 E0.14943
G1 F12000
G1 X115.047 Y101.970 E-1.52000
G1 E-0.08000 F2100.00000
G1 Z0.800 F15000.000
G1 X117.235 Y102.590 F15000.000
G1 Z0.200 F15000.000
G1 E1.60000 F2100.00000
G1 F1800
G1 X117.235 Y107.410 E0.15113
G1 X120.235 Y107.410 E0.09406
G1 X120.235 Y111.490 E0.12793
G1 X114.655 Y111.490 E0.17496
G1 X114.655 Y98.510 E0.40698
G1 X120.235 Y98.510 E0.17496
G1 X120.235 Y102.590 E0.12793
G1 X117.295 Y102.590 E0.09218
G1 X116.854 Y102.713 F15000.000
G1 F12000
G1 X117.235 Y107.410 E-0.80139
G1 F12000
G1 X120.235 Y107.410 E-0.49875
G1 F12000
G1 X120.235 Y108.732 E-0.21986
G1 E-0.08000 F2100.00000
G1 Z0.800 F15000.000
G1 X119.745 Y99.769 F15000.000
G1 Z0.200 F15000.000
G1 E1.60000 F2100.00000
G1 F1800
G1 X119.145 Y99.170 E0.02681
G1 X118.607 Y99.170 E0.01701
G1 X119.575 Y100.138 E0.04328
G1 X119.575 Y100.675 E0.01701
G1 X118.070 Y99.170 E0.06734
G1 X117.532 Y99.170 E0.01701
G1 X119.575 Y101.213 E0.09140
G1 X119.575 Y101.751 E0.01701
G1 X116.994 Y99.170 E0.11546
G1 X116.456 Y99.170 E0.01701
G1 X119.216 Y101.930 E0.12346
G1 X118.678 Y101.930 E0.01701
G1 X115.918 Y99.170 E0.12346
G1 X115.380 Y99.170 E0.01701
G1 X118.140 Y101.930 E0.12346
G1 X117.602 Y101.930 E0.01701
G1 X115.315 Y99.643 E0.10231
G1 X115.315 Y100.180 E0.01701
G1 X117.065 Y101.930 E0.07826
G1 X116.575 Y101.930 E0.01548
G1 X116.575 Y101.979 E0.00153
G1 X115.315 Y100.718 E0.05637
G1 X115.315 Y101.256 E0.01701
G1 X116.575 Y102.517 E0.05637
G1 X116.575 Y103.054 E0.01701
G1 X115.315 Y101.794 E0.05637
G1 X115.315 Y102.332 E0.01701
G1 X116.575 Y103.592 E0.05637
G1 X116.575 Y104.130 E0.01701
G1 X115.315 Y102.870 E0.05637
G1 X115.315 Y103.408 E0.01701
G1 X116.575 Y104.668 E0.05637
G1 X116.575 Y105.206 E0.01701
G1 X115.315 Y103.946 E0.05637
G1 X115.315 Y104.484 E0.01701
G1 X116.575 Y105.744 E0.05637
G1 X116.575 Y106.282 E0.01701
G1 X115.315 Y105.021 E0.05637
G1 X115.315 Y105.559 E0.01701
G1 X116.575 Y106.820 E0.05637
G1 X116.575 Y107.358 E0.01701
G1 X115.315 Y106.097 E0.05637
G1 X115.315 Y106.635 E0.01701
G1 X119.510 Y110.830 E0.18762
G1 X119.575 Y110.830 E0.00206
G1 X119.575 Y110.358 E0.01495
G1 X117.287 Y108.070 E0.10232
G1 X117.825 Y108.070 E0.01701
G1 X119.575 Y109.820 E0.07826
G1 X119.575 Y109.282 E0.01701
G1 X118.363 Y108.070 E0.05420
G1 X118.901 Y108.070 E0.01701
G1 X119.575 Y108.744 E0.03015
