; generated by Slic3r Prusa Edition 1.39.1-prusa3d-win64 on 2018-04-04 at 01:04:48

; Added in generate support (includes "detect bridging perimeters")

; external perimeters extrusion width = 0.45mm
; perimeters extrusion width = 0.45mm
; infill extrusion width = 0.45mm
; solid infill extrusion width = 0.45mm
; top infill extrusion width = 0.40mm
; support material extrusion width = 0.35mm
; first layer extrusion width = 0.42mm

; external perimeters extrusion width = 0.45mm
; perimeters extrusion width = 0.45mm
; infill extrusion width = 0.45mm
; solid infill extrusion width = 0.45mm
; top infill extrusion width = 0.40mm
; support material extrusion width = 0.35mm
; first layer extrusion width = 0.42mm

M107
M115 U3.1.1-RC5 ; tell printer latest fw version
M201 X1000 Y1000 Z200 E5000 ; sets maximum accelerations, mm/sec^2
M203 X200 Y200 Z12 E120 ; sets maximum feedrates, mm/sec
M204 S1250 T1250 ; sets acceleration (S) and retract acceleration (T)
M205 X10 Y10 Z0.4 E2.5 ; sets the jerk limits, mm/sec
M205 S0 T0 ; sets the minimum extruding and travel feed rate, mm/sec
M83  ; extruder relative mode
M104 S215 ; set extruder temp
M140 S60 ; set bed temp
M190 S60 ; wait for bed temp
M109 S215 ; wait for extruder temp
G28 W ; home all without mesh bed level
G80 ; mesh bed leveling
G1 Y-3.0 F1000.0 ; go outside print area
G92 E0.0
G1 X60.0 E9.0  F1000.0 ; intro line
G1 X100.0 E12.5  F1000.0 ; intro line
G92 E0.0
M221 S100
M900 K30; Filament gcode
M900 K30; Filament gcode
G21 ; set units to millimeters
G90 ; use absolute coordinates
M83 ; use relative distances for extrusion
T0
;BEFORE_LAYER_CHANGE
;0.25


G1 E-1.60000 F2100.00000
G1 Z0.600 F15000.000
;AFTER_LAYER_CHANGE
;0.25
G1 X57.434 Y68.295 F15000.000
G1 Z0.250 F15000.000
G1 E1.60000 F2100.00000
M204 S1000
G1 F1800
G1 X57.938 Y67.925 E0.02381
G1 X58.484 Y67.709 E0.02237
G1 X59.071 Y67.634 E0.02252
G1 X190.929 Y67.634 E5.02083
G1 X191.822 Y67.810 E0.03466
G1 X192.585 Y68.313 E0.03480
G1 X193.100 Y69.068 E0.03480
G1 X193.291 Y69.962 E0.03480
G1 X193.291 Y140.038 E2.66834
G1 X193.200 Y140.653 E0.02366
G1 X192.951 Y141.222 E0.02366
G1 X192.563 Y141.708 E0.02366
G1 X192.062 Y142.075 E0.02366
G1 X191.516 Y142.291 E0.02237
G1 X190.929 Y142.366 E0.02252
G1 X59.060 Y142.366 E5.02127
G1 X58.441 Y142.280 E0.02381
G1 X57.862 Y142.032 E0.02395
G1 X57.373 Y141.644 E0.02381
G1 X57.000 Y141.137 E0.02395
G1 X56.784 Y140.594 E0.02223
G1 X56.709 Y140.012 E0.02237
G1 X56.709 Y69.970 E2.66703
G1 X56.798 Y69.355 E0.02366
G1 X57.047 Y68.781 E0.02381
G1 X57.397 Y68.342 E0.02138
G1 F12000
G1 X57.938 Y67.925 E-0.11360
G1 F12000
G1 X58.484 Y67.709 E-0.09768
G1 F12000
G1 X59.071 Y67.634 E-0.09831
G1 F12000
G1 X66.352 Y67.634 E-1.21041
G1 E-0.08000 F2100.00000
G1 Z0.850 F15000.000
G1 X79.718 Y105.000 F15000.000
G1 Z0.250 F15000.000
G1 E1.60000 F2100.00000
G1 F1800
G1 X112.626 Y123.999 E1.44691
G1 X112.626 Y132.002 E0.30471
G1 X65.858 Y105.000 E2.05632
G1 X112.626 Y77.998 E2.05632
G1 X112.626 Y86.001 E0.30471
G1 X79.770 Y104.970 E1.44462
G1 X80.451 Y105.000 F15000.000
G1 F1800
G1 X112.993 Y123.788 E1.43080
G1 X112.993 Y132.636 E0.33692
G1 X65.125 Y105.000 E2.10465
G1 X112.993 Y77.364 E2.10465
G1 X112.993 Y86.212 E0.33692
G1 X80.503 Y104.970 E1.42851
G1 X80.213 Y105.321 F15000.000
G1 X80.269 Y105.445 F15000.000
G1 F1800
G1 X98.602 Y123.778 E0.99109
G1 F12000
G1 X92.137 Y117.313 E-1.52000
G1 E-0.08000 F2100.00000
G1 Z0.850 F15000.000
G1 X97.372 Y123.068 F15000.000
G1 Z0.250 F15000.000
G1 E1.60000 F2100.00000
G1 F1800
G1 X74.583 Y100.279 E1.23193
G1 X74.254 Y100.470 E0.01455
G1 X96.141 Y122.357 E1.18323
G1 F12000
G1 X89.676 Y115.892 E-1.52000
G1 E-0.08000 F2100.00000
G1 Z0.850 F15000.000
G1 X94.910 Y121.647 F15000.000
G1 Z0.250 F15000.000
G1 E1.60000 F2100.00000
G1 F1800
G1 X73.924 Y100.660 E1.13453
G1 X73.594 Y100.851 E0.01455
G1 X93.680 Y120.936 E1.08583
G1 F12000
G1 X87.215 Y114.471 E-1.52000
G1 E-0.08000 F2100.00000
G1 Z0.850 F15000.000
G1 X92.449 Y120.226 F15000.000
G1 Z0.250 F15000.000
G1 E1.60000 F2100.00000
G1 F1800
G1 X73.265 Y101.041 E1.03713
G1 X72.935 Y101.231 E0.01455
G1 X91.219 Y119.515 E0.98842
G1 F12000
G1 X84.754 Y113.050 E-1.52000
G1 E-0.08000 F2100.00000
G1 Z0.850 F15000.000
G1 X89.988 Y118.805 F15000.000
G1 Z0.250 F15000.000
G1 E1.60000 F2100.00000
G1 F1800
G1 X72.605 Y101.422 E0.93972
G1 X72.275 Y101.612 E0.01455
G1 X88.757 Y118.094 E0.89102
G1 F12000
G1 X82.292 Y111.629 E-1.52000
G1 E-0.08000 F2100.00000
G1 Z0.850 F15000.000
G1 X87.527 Y117.384 F15000.000
G1 Z0.250 F15000.000
G1 E1.60000 F2100.00000
G1 F1800
G1 X71.946 Y101.802 E0.84232
G1 X71.616 Y101.993 E0.01455
G1 X86.296 Y116.673 E0.79362
G1 F12000
G1 X79.831 Y110.208 E-1.52000
G1 E-0.08000 F2100.00000
G1 Z0.850 F15000.000
G1 X85.066 Y115.963 F15000.000
G1 Z0.250 F15000.000
G1 E1.60000 F2100.00000
G1 F1800
G1 X71.286 Y102.183 E0.74492
G1 X70.956 Y102.374 E0.01455
G1 X83.835 Y115.252 E0.69622
G1 F12000
G1 X77.370 Y108.787 E-1.52000
G1 E-0.08000 F2100.00000
G1 Z0.850 F15000.000
G1 X82.604 Y114.542 F15000.000
G1 Z0.250 F15000.000
G1 E1.60000 F2100.00000
G1 F1800
G1 X70.627 Y102.564 E0.64752
G1 X70.297 Y102.754 E0.01455
G1 X81.374 Y113.831 E0.59882
G1 F12000
G1 X74.909 Y107.366 E-1.52000
G1 E-0.08000 F2100.00000
G1 Z0.850 F15000.000
G1 X80.143 Y113.121 F15000.000
G1 Z0.250 F15000.000
G1 E1.60000 F2100.00000
G1 F1800
G1 X69.967 Y102.945 E0.55012
G1 X69.637 Y103.135 E0.01455
G1 X78.913 Y112.410 E0.50141
G1 F12000
G1 X72.448 Y105.945 E-1.52000
G1 E-0.08000 F2100.00000
G1 Z0.850 F15000.000
G1 X77.682 Y111.700 F15000.000
G1 Z0.250 F15000.000
G1 E1.60000 F2100.00000
G1 F1800
G1 X69.308 Y103.325 E0.45271
G1 X68.978 Y103.516 E0.01455
G1 X76.451 Y110.989 E0.40401
G1 F12000
G1 X69.986 Y104.524 E-1.52000
G1 E-0.08000 F2100.00000
G1 Z0.850 F15000.000
G1 X75.221 Y110.279 F15000.000
G1 Z0.250 F15000.000
G1 E1.60000 F2100.00000
G1 F1800
G1 X68.648 Y103.706 E0.35531
G1 X68.318 Y103.897 E0.01455
G1 X73.990 Y109.568 E0.30661
G1 F12000
G1 X68.318 Y103.897 E-1.33348
G1 F12000
G1 X68.648 Y103.706 E-0.06330
G1 F12000
G1 X69.172 Y104.230 E-0.12322
G1 E-0.08000 F2100.00000
G1 Z0.850 F15000.000
G1 X72.759 Y108.858 F15000.000
G1 Z0.250 F15000.000
G1 E1.60000 F2100.00000
G1 F1800
G1 X67.989 Y104.087 E0.25791
G1 X67.659 Y104.277 E0.01455
G1 X71.529 Y108.147 E0.20921
G1 F12000
G1 X67.659 Y104.277 E-0.90987
G1 F12000
G1 X67.989 Y104.087 E-0.06330
G1 F12000
G1 X70.314 Y106.413 E-0.54683
G1 E-0.08000 F2100.00000
G1 Z0.850 F15000.000
G1 X70.298 Y107.437 F15000.000
G1 Z0.250 F15000.000
G1 E1.60000 F2100.00000
G1 F1800
G1 X67.329 Y104.468 E0.16051
G1 X66.999 Y104.658 E0.01455
G1 X69.068 Y106.726 E0.11181
G1 F12000
G1 X66.999 Y104.658 E-0.48626
G1 F12000
G1 X67.329 Y104.468 E-0.06330
G1 F12000
G1 X70.298 Y107.437 E-0.69806
G1 E-0.35238 F2100.00000
G1 Z0.850 F15000.000
G1 X67.837 Y106.016 F15000.000
G1 Z0.250 F15000.000
G1 E1.60000 F2100.00000
G1 F1800
G1 X66.549 Y104.728 E0.06963
G1 F12000
G1 X67.837 Y106.016 E-0.30282
G1 E-1.29718 F2100.00000
G1 Z0.850 F15000.000
G1 X79.705 Y104.881 F15000.000
G1 Z0.250 F15000.000
G1 E1.60000 F2100.00000
G1 F1800
G1 X74.913 Y100.089 E0.25904
G1 X75.243 Y99.899 E0.01455
G1 X79.914 Y104.570 E0.25251
G1 X80.244 Y104.379 E0.01455
G1 X75.573 Y99.708 E0.25251
G1 X75.902 Y99.518 E0.01455
G1 X80.573 Y104.189 E0.25251
G1 X80.903 Y103.999 E0.01455
G1 X76.232 Y99.328 E0.25251
G1 X76.562 Y99.137 E0.01455
G1 X81.233 Y103.808 E0.25251
G1 X81.563 Y103.618 E0.01455
G1 X76.892 Y98.947 E0.25251
G1 X77.221 Y98.756 E0.01455
G1 X81.892 Y103.427 E0.25251
G1 X82.222 Y103.237 E0.01455
G1 X77.551 Y98.566 E0.25251
G1 X77.881 Y98.376 E0.01455
G1 X82.552 Y103.047 E0.25251
G1 X82.882 Y102.856 E0.01455
G1 X78.211 Y98.185 E0.25251
G1 X78.540 Y97.995 E0.01455
G1 X83.211 Y102.666 E0.25251
G1 X83.541 Y102.476 E0.01455
G1 X78.870 Y97.805 E0.25251
G1 X79.200 Y97.614 E0.01455
G1 X83.871 Y102.285 E0.25251
G1 X84.201 Y102.095 E0.01455
G1 X79.530 Y97.424 E0.25251
G1 X79.859 Y97.233 E0.01455
G1 X84.530 Y101.904 E0.25251
G1 X84.860 Y101.714 E0.01455
G1 X80.189 Y97.043 E0.25251
G1 X80.519 Y96.853 E0.01455
G1 X85.190 Y101.524 E0.25251
G1 X85.520 Y101.333 E0.01455
G1 X80.849 Y96.662 E0.25251
G1 X81.178 Y96.472 E0.01455
G1 X85.849 Y101.143 E0.25251
G1 X86.179 Y100.953 E0.01455
G1 X81.508 Y96.282 E0.25251
G1 X81.838 Y96.091 E0.01455
G1 X86.509 Y100.762 E0.25251
G1 X86.839 Y100.572 E0.01455
G1 X82.168 Y95.901 E0.25251
G1 X82.497 Y95.710 E0.01455
G1 X87.168 Y100.381 E0.25251
G1 X87.498 Y100.191 E0.01455
G1 X82.827 Y95.520 E0.25251
G1 X83.157 Y95.330 E0.01455
G1 X87.828 Y100.001 E0.25251
G1 X88.158 Y99.810 E0.01455
G1 X83.487 Y95.139 E0.25251
G1 X83.816 Y94.949 E0.01455
G1 X88.487 Y99.620 E0.25251
G1 X88.817 Y99.430 E0.01455
G1 X84.146 Y94.759 E0.25251
G1 X84.476 Y94.568 E0.01455
G1 X89.147 Y99.239 E0.25251
G1 X89.476 Y99.049 E0.01455
G1 X84.805 Y94.378 E0.25251
G1 X85.135 Y94.187 E0.01455
G1 X89.806 Y98.858 E0.25251
G1 X90.136 Y98.668 E0.01455
G1 X85.465 Y93.997 E0.25251
G1 X85.795 Y93.807 E0.01455
G1 X90.466 Y98.478 E0.25251
G1 X90.795 Y98.287 E0.01455
G1 X86.124 Y93.616 E0.25251
G1 X86.454 Y93.426 E0.01455
G1 X91.125 Y98.097 E0.25251
G1 X91.455 Y97.907 E0.01455
G1 X86.784 Y93.236 E0.25251
G1 X87.114 Y93.045 E0.01455
G1 X91.785 Y97.716 E0.25251
G1 X92.114 Y97.526 E0.01455
G1 X87.443 Y92.855 E0.25251
G1 X87.773 Y92.664 E0.01455
G1 X92.444 Y97.335 E0.25251
G1 X92.774 Y97.145 E0.01455
G1 X88.103 Y92.474 E0.25251
G1 X88.433 Y92.284 E0.01455
G1 X93.104 Y96.955 E0.25251
G1 X93.433 Y96.764 E0.01455
G1 X88.762 Y92.093 E0.25251
G1 X89.092 Y91.903 E0.01455
G1 X93.763 Y96.574 E0.25251
G1 X94.093 Y96.384 E0.01455
G1 X89.422 Y91.713 E0.25251
G1 X89.752 Y91.522 E0.01455
G1 X94.423 Y96.193 E0.25251
G1 X94.752 Y96.003 E0.01455
G1 X90.081 Y91.332 E0.25251
G1 X90.411 Y91.141 E0.01455
G1 X95.082 Y95.812 E0.25251
G1 X95.412 Y95.622 E0.01455
G1 X90.741 Y90.951 E0.25251
G1 X91.071 Y90.761 E0.01455
G1 X95.742 Y95.432 E0.25251
G1 X96.071 Y95.241 E0.01455
G1 X91.400 Y90.570 E0.25251
G1 X91.730 Y90.380 E0.01455
G1 X96.401 Y95.051 E0.25251
G1 X96.731 Y94.861 E0.01455
G1 X92.060 Y90.190 E0.25251
G1 X92.390 Y89.999 E0.01455
G1 X97.061 Y94.670 E0.25251
G1 X97.390 Y94.480 E0.01455
G1 X92.719 Y89.809 E0.25251
G1 X93.049 Y89.618 E0.01455
G1 X97.720 Y94.289 E0.25251
G1 X98.050 Y94.099 E0.01455
G1 X93.379 Y89.428 E0.25251
G1 X93.708 Y89.238 E0.01455
G1 X98.380 Y93.909 E0.25251
G1 X98.709 Y93.718 E0.01455
G1 X94.038 Y89.047 E0.25251
G1 X94.368 Y88.857 E0.01455
G1 X99.039 Y93.528 E0.25251
G1 X99.369 Y93.338 E0.01455
G1 X94.698 Y88.667 E0.25251
G1 X95.027 Y88.476 E0.01455
G1 X99.698 Y93.147 E0.25251
G1 X100.028 Y92.957 E0.01455
G1 X95.357 Y88.286 E0.25251
G1 X95.687 Y88.095 E0.01455
G1 X100.358 Y92.766 E0.25251
G1 X100.688 Y92.576 E0.01455
G1 X96.017 Y87.905 E0.25251
G1 X96.346 Y87.715 E0.01455
G1 X101.017 Y92.386 E0.25251
G1 X101.347 Y92.195 E0.01455
G1 X96.676 Y87.524 E0.25251
G1 X97.006 Y87.334 E0.01455
G1 X101.677 Y92.005 E0.25251
G1 X102.007 Y91.815 E0.01455
G1 X97.336 Y87.143 E0.25251
G1 X97.665 Y86.953 E0.01455
G1 X102.336 Y91.624 E0.25251
G1 X102.666 Y91.434 E0.01455
G1 X97.995 Y86.763 E0.25251
G1 X98.325 Y86.572 E0.01455
G1 X102.996 Y91.243 E0.25251
G1 X103.326 Y91.053 E0.01455
G1 X98.655 Y86.382 E0.25251
G1 X98.984 Y86.192 E0.01455
G1 X103.655 Y90.863 E0.25251
G1 X103.985 Y90.672 E0.01455
G1 X99.314 Y86.001 E0.25251
G1 X99.644 Y85.811 E0.01455
G1 X104.315 Y90.482 E0.25251
G1 X104.645 Y90.291 E0.01455
G1 X99.974 Y85.620 E0.25251
G1 X100.303 Y85.430 E0.01455
G1 X104.974 Y90.101 E0.25251
G1 X105.304 Y89.911 E0.01455
G1 X100.633 Y85.240 E0.25251
G1 X100.963 Y85.049 E0.01455
G1 X105.634 Y89.720 E0.25251
G1 X105.964 Y89.530 E0.01455
G1 X101.293 Y84.859 E0.25251
G1 X101.622 Y84.669 E0.01455
G1 X106.293 Y89.340 E0.25251
G1 X106.623 Y89.149 E0.01455
G1 X101.952 Y84.478 E0.25251
G1 X102.282 Y84.288 E0.01455
G1 X106.953 Y88.959 E0.25251
G1 X107.283 Y88.768 E0.01455
G1 X102.612 Y84.097 E0.25251
G1 X102.941 Y83.907 E0.01455
G1 X107.612 Y88.578 E0.25251
G1 X107.942 Y88.388 E0.01455
G1 X103.271 Y83.717 E0.25251
G1 X103.601 Y83.526 E0.01455
G1 X108.272 Y88.197 E0.25251
G1 X108.601 Y88.007 E0.01455
G1 X103.930 Y83.336 E0.25251
G1 X104.260 Y83.146 E0.01455
G1 X108.931 Y87.817 E0.25251
G1 X109.261 Y87.626 E0.01455
G1 X104.590 Y82.955 E0.25251
G1 X104.920 Y82.765 E0.01455
G1 X109.591 Y87.436 E0.25251
G1 X109.920 Y87.245 E0.01455
G1 X105.249 Y82.574 E0.25251
G1 X105.579 Y82.384 E0.01455
G1 X110.250 Y87.055 E0.25251
G1 X110.580 Y86.865 E0.01455
G1 X105.909 Y82.194 E0.25251
G1 X106.239 Y82.003 E0.01455
G1 X110.910 Y86.674 E0.25251
G1 X111.239 Y86.484 E0.01455
G1 X106.568 Y81.813 E0.25251
G1 X106.898 Y81.623 E0.01455
G1 X111.569 Y86.294 E0.25251
G1 X111.899 Y86.103 E0.01455
G1 X107.228 Y81.432 E0.25251
G1 X107.558 Y81.242 E0.01455
G1 X112.229 Y85.913 E0.25251
G1 X112.351 Y85.842 E0.00542
G1 X112.351 Y85.515 E0.01248
G1 X107.887 Y81.051 E0.24133
G1 X108.217 Y80.861 E0.01455
G1 X112.351 Y84.995 E0.22350
G1 X112.351 Y84.475 E0.01988
G1 X108.547 Y80.671 E0.20567
G1 X108.877 Y80.480 E0.01455
G1 X112.351 Y83.955 E0.18785
G1 X112.351 Y83.435 E0.01988
G1 X109.206 Y80.290 E0.17002
G1 X109.536 Y80.100 E0.01455
G1 X112.351 Y82.915 E0.15220
G1 X112.351 Y82.395 E0.01988
G1 X109.866 Y79.909 E0.13437
G1 X110.196 Y79.719 E0.01455
G1 X112.351 Y81.875 E0.11654
G1 X112.351 Y81.355 E0.01988
G1 X110.525 Y79.528 E0.09872
G1 X110.855 Y79.338 E0.01455
G1 X112.351 Y80.834 E0.08089
G1 X112.351 Y80.314 E0.01988
G1 X111.185 Y79.148 E0.06307
G1 X111.515 Y78.957 E0.01455
G1 X112.351 Y79.794 E0.04524
G1 X112.351 Y79.274 E0.01988
G1 X111.844 Y78.767 E0.02742
G1 X112.174 Y78.577 E0.01455
G1 X112.516 Y78.919 E0.01850
G1 F12000
G1 X112.174 Y78.577 E-0.08047
G1 F12000
G1 X111.844 Y78.767 E-0.06330
G1 F12000
G1 X112.351 Y79.274 E-0.11923
G1 F12000
G1 X112.351 Y79.794 E-0.08647
G1 F12000
G1 X111.515 Y78.957 E-0.19676
G1 F12000
G1 X111.185 Y79.148 E-0.06330
G1 F12000
G1 X112.351 Y80.314 E-0.27429
G1 F12000
G1 X112.351 Y80.834 E-0.08647
G1 F12000
G1 X110.855 Y79.338 E-0.35181
G1 F12000
G1 X110.525 Y79.528 E-0.06330
G1 F12000
G1 X111.098 Y80.101 E-0.13460
G1 E-0.08000 F2100.00000
G1 Z0.850 F15000.000
G1 X92.575 Y112.550 F15000.000
G1 Z0.250 F15000.000
G1 E1.60000 F2100.00000
G1 F1800
G1 X110.908 Y130.883 E0.99109
G1 F12000
G1 X104.443 Y124.418 E-1.52000
G1 E-0.08000 F2100.00000
G1 Z0.850 F15000.000
G1 X109.678 Y130.173 F15000.000
G1 Z0.250 F15000.000
G1 E1.60000 F2100.00000
G1 F1800
G1 X91.345 Y111.839 E0.99109
G1 F12000
G1 X97.810 Y118.304 E-1.52000
G1 E-0.08000 F2100.00000
G1 Z0.850 F15000.000
G1 X90.114 Y111.129 F15000.000
G1 Z0.250 F15000.000
G1 E1.60000 F2100.00000
G1 F1800
G1 X108.447 Y129.462 E0.99109
G1 F12000
G1 X101.982 Y122.997 E-1.52000
G1 E-0.08000 F2100.00000
G1 Z0.850 F15000.000
G1 X107.217 Y128.752 F15000.000
G1 Z0.250 F15000.000
G1 E1.60000 F2100.00000
G1 F1800
G1 X88.883 Y110.418 E0.99109
G1 F12000
G1 X95.348 Y116.883 E-1.52000
G1 E-0.08000 F2100.00000
G1 Z0.850 F15000.000
G1 X87.653 Y109.708 F15000.000
G1 Z0.250 F15000.000
G1 E1.60000 F2100.00000
G1 F1800
G1 X105.986 Y128.041 E0.99109
G1 F12000
G1 X99.521 Y121.576 E-1.52000
G1 E-0.08000 F2100.00000
G1 Z0.850 F15000.000
G1 X104.755 Y127.331 F15000.000
G1 Z0.250 F15000.000
G1 E1.60000 F2100.00000
G1 F1800
G1 X86.422 Y108.997 E0.99109
G1 F12000
G1 X92.887 Y115.462 E-1.52000
G1 E-0.08000 F2100.00000
G1 Z0.850 F15000.000
G1 X85.192 Y108.287 F15000.000
G1 Z0.250 F15000.000
G1 E1.60000 F2100.00000
G1 F1800
G1 X103.525 Y126.620 E0.99109
G1 F12000
G1 X97.060 Y120.155 E-1.52000
G1 E-0.08000 F2100.00000
G1 Z0.850 F15000.000
G1 X102.294 Y125.910 F15000.000
G1 Z0.250 F15000.000
G1 E1.60000 F2100.00000
G1 F1800
G1 X83.961 Y107.576 E0.99109
G1 F12000
G1 X90.426 Y114.041 E-1.52000
G1 E-0.08000 F2100.00000
G1 Z0.850 F15000.000
G1 X82.730 Y106.866 F15000.000
G1 Z0.250 F15000.000
G1 E1.60000 F2100.00000
G1 F1800
G1 X101.064 Y125.199 E0.99109
G1 F12000
G1 X94.599 Y118.734 E-1.52000
G1 E-0.08000 F2100.00000
G1 Z0.850 F15000.000
G1 X99.833 Y124.489 F15000.000
G1 Z0.250 F15000.000
G1 E1.60000 F2100.00000
G1 F1800
G1 X81.500 Y106.155 E0.99109
G1 F12000
G1 X87.965 Y112.620 E-1.52000
