; generated by Slic3r Prusa Edition 1.39.1-prusa3d-win64 on 2018-04-04 at 02:04:49

; Added in generate support (includes "detect bridging perimeters")

; external perimeters extrusion width = 0.45mm
; perimeters extrusion width = 0.45mm
; infill extrusion width = 0.45mm
; solid infill extrusion width = 0.45mm
; top infill extrusion width = 0.40mm
; support material extrusion width = 0.35mm
; first layer extrusion width = 0.42mm

; external perimeters extrusion width = 0.45mm
; perimeters extrusion width = 0.45mm
; infill extrusion width = 0.45mm
; solid infill extrusion width = 0.45mm
; top infill extrusion width = 0.40mm
; support material extrusion width = 0.35mm
; first layer extrusion width = 0.42mm

M107
M115 U3.1.1-RC5 ; tell printer latest fw version
M201 X1000 Y1000 Z200 E5000 ; sets maximum accelerations, mm/sec^2
M203 X200 Y200 Z12 E120 ; sets maximum feedrates, mm/sec
M204 S1250 T1250 ; sets acceleration (S) and retract acceleration (T)
M205 X10 Y10 Z0.4 E2.5 ; sets the jerk limits, mm/sec
M205 S0 T0 ; sets the minimum extruding and travel feed rate, mm/sec
M83  ; extruder relative mode
M104 S220 ; set extruder temp
M140 S30 ; set bed temp
M190 S30 ; wait for bed temp
M109 S220 ; wait for extruder temp
G28 W ; home all without mesh bed level
G80 ; mesh bed leveling
G1 Y-3.0 F1000.0 ; go outside print area
G92 E0.0
G1 X60.0 E9.0  F1000.0 ; intro line
G1 X100.0 E12.5  F1000.0 ; intro line
G92 E0.0
M221 S100
M900 K10; Filament gcode
G21 ; set units to millimeters
G90 ; use absolute coordinates
M83 ; use relative distances for extrusion
T0
;BEFORE_LAYER_CHANGE
;0.25


G1 Z0.250 F15000.000
;AFTER_LAYER_CHANGE
;0.25
G1 X118.317 Y91.488 F15000.000
M204 S1000
G1 F1800
G1 X119.120 Y91.359 E0.03099
G1 X131.497 Y91.359 E0.47128
G1 X132.483 Y91.545 E0.03819
G1 X133.335 Y92.073 E0.03819
G1 X138.016 Y96.842 E0.25445
G1 X138.361 Y97.312 E0.02220
G1 X138.599 Y97.844 E0.02220
G1 X138.731 Y98.660 E0.03145
G1 X138.731 Y111.697 E0.49643
G1 X138.655 Y112.308 E0.02343
G1 X138.443 Y112.890 E0.02359
G1 X137.969 Y113.561 E0.03129
G1 X135.591 Y115.855 E0.12582
G1 X132.525 Y118.435 E0.15256
G1 X131.594 Y118.896 E0.03957
G1 X130.856 Y118.994 E0.02837
G1 X119.075 Y118.828 E0.44862
G1 X118.485 Y118.748 E0.02266
G1 X117.923 Y118.540 E0.02281
G1 X117.246 Y118.060 E0.03160
G1 X112.762 Y113.544 E0.24233
G1 X112.363 Y112.998 E0.02575
G1 X112.109 Y112.371 E0.02575
G1 X112.017 Y111.689 E0.02621
G1 X112.018 Y98.648 E0.49659
G1 X112.094 Y98.041 E0.02328
G1 X112.305 Y97.463 E0.02343
G1 X114.451 Y94.450 E0.14087
G1 X117.485 Y91.922 E0.15034
G1 X118.264 Y91.516 E0.03346
G1 X126.662 Y99.220 F15000.000
G1 F1800
G1 X126.662 Y103.842 E0.14236
G1 X126.496 Y103.641 E0.00804
G1 X126.166 Y103.423 E0.01218
G1 X126.166 Y99.353 E0.12535
G1 X125.670 Y99.353 E0.01529
G1 X125.670 Y103.095 E0.11525
G1 X125.592 Y103.043 E0.00287
G1 X125.474 Y103.008 E0.00379
G1 X125.173 Y103.008 E0.00927
G1 X125.173 Y99.353 E0.11258
G1 X124.677 Y99.353 E0.01529
G1 X124.677 Y103.008 E0.11258
G1 X124.526 Y103.008 E0.00466
G1 X124.408 Y103.043 E0.00379
G1 X124.181 Y103.194 E0.00840
G1 X124.181 Y99.353 E0.11829
G1 X123.684 Y99.353 E0.01529
G1 X123.684 Y103.521 E0.12839
G1 X123.452 Y103.690 E0.00884
G1 X123.253 Y103.955 E0.01022
G1 X123.188 Y104.144 E0.00616
G1 X123.188 Y99.353 E0.14757
G1 X122.692 Y99.353 E0.01529
G1 X122.692 Y110.835 E0.35366
G1 X123.188 Y110.835 E0.01529
G1 X123.188 Y105.856 E0.15336
G1 X123.253 Y106.045 E0.00616
G1 X123.452 Y106.310 E0.01022
G1 X123.684 Y106.479 E0.00884
G1 X123.684 Y110.835 E0.13418
G1 X124.181 Y110.835 E0.01529
G1 X124.181 Y106.806 E0.12408
G1 X124.408 Y106.957 E0.00840
G1 X124.526 Y106.992 E0.00379
G1 X124.677 Y106.992 E0.00466
G1 X124.677 Y110.835 E0.11837
G1 X125.173 Y110.835 E0.01529
G1 X125.173 Y106.992 E0.11837
G1 X125.474 Y106.992 E0.00927
G1 X125.592 Y106.957 E0.00379
G1 X125.670 Y106.905 E0.00287
G1 X125.670 Y110.835 E0.12104
G1 X126.166 Y110.835 E0.01529
G1 X126.166 Y106.577 E0.13114
G1 X126.496 Y106.359 E0.01218
G1 X126.662 Y106.158 E0.00804
G1 X126.662 Y110.835 E0.14404
G1 X127.159 Y110.835 E0.01529
G1 X127.159 Y99.353 E0.35366
G1 X127.655 Y99.353 E0.01529
G1 X127.655 Y110.835 E0.35366
G1 X128.151 Y110.835 E0.01529
G1 X128.151 Y99.353 E0.35366
G1 X128.528 Y99.353 E0.01160
G1 X128.528 Y101.649 E0.07073
G1 X128.648 Y101.649 E0.00369
G1 X128.648 Y108.539 E0.21220
G1 X129.144 Y108.539 E0.01529
G1 X129.144 Y101.649 E0.21220
G1 X129.640 Y101.649 E0.01529
G1 X129.640 Y108.539 E0.21220
G1 X130.137 Y108.539 E0.01529
G1 X130.137 Y101.649 E0.21220
G1 X130.633 Y101.649 E0.01529
G1 X130.633 Y108.672 E0.21631
G1 X135.998 Y111.668 F15000.000
G1 F1800
G1 X135.998 Y98.685 E0.49439
G1 X135.266 Y98.685 E0.02790
G1 X135.266 Y111.503 E0.48811
G1 X134.533 Y111.503 E0.02790
G1 X134.533 Y98.685 E0.48811
G1 X133.800 Y98.685 E0.02790
G1 X133.789 Y113.800 E0.57555
G1 X133.067 Y113.800 E0.02749
G1 X133.067 Y96.388 E0.66299
G1 X132.335 Y96.388 E0.02790
G1 X132.335 Y113.800 E0.66299
G1 X131.602 Y113.800 E0.02790
G1 X131.602 Y96.388 E0.66299
G1 X131.493 Y96.388 E0.00415
G1 X131.493 Y94.092 E0.08744
G1 X130.869 Y94.092 E0.02375
G1 X130.869 Y101.318 E0.27516
G1 X130.137 Y101.318 E0.02790
G1 X130.137 Y94.092 E0.27516
G1 X129.404 Y94.092 E0.02790
G1 X129.404 Y101.318 E0.27516
G1 X128.859 Y101.318 E0.02073
G1 X128.859 Y99.022 E0.08744
G1 X128.671 Y99.022 E0.00716
G1 X128.671 Y94.092 E0.18772
G1 X127.939 Y94.092 E0.02790
G1 X127.939 Y99.022 E0.18772
G1 X127.206 Y99.022 E0.02790
G1 X127.206 Y94.092 E0.18772
G1 X126.473 Y94.092 E0.02790
G1 X126.473 Y99.022 E0.18772
G1 X125.740 Y99.022 E0.02790
G1 X125.740 Y94.092 E0.18772
G1 X125.008 Y94.092 E0.02790
G1 X125.008 Y99.022 E0.18772
G1 X124.275 Y99.022 E0.02790
G1 X124.275 Y94.092 E0.18772
G1 X123.542 Y94.092 E0.02790
G1 X123.542 Y99.022 E0.18772
G1 X122.810 Y99.022 E0.02790
G1 X122.810 Y94.092 E0.18772
G1 X122.077 Y94.092 E0.02790
G1 X122.077 Y99.022 E0.18772
G1 X121.344 Y99.022 E0.02790
G1 X121.344 Y94.092 E0.18772
G1 X120.612 Y94.092 E0.02790
G1 X120.612 Y101.318 E0.27516
G1 X119.879 Y101.318 E0.02790
G1 X119.879 Y94.092 E0.27516
G1 X119.146 Y94.092 E0.02790
G1 X119.146 Y116.096 E0.83787
G1 X119.879 Y116.096 E0.02790
G1 X119.879 Y108.870 E0.27516
G1 X120.612 Y108.870 E0.02790
G1 X120.612 Y116.096 E0.27516
G1 X121.344 Y116.096 E0.02790
G1 X121.344 Y111.166 E0.18772
G1 X122.077 Y111.166 E0.02790
G1 X122.077 Y116.096 E0.18772
G1 X122.810 Y116.096 E0.02790
G1 X122.810 Y111.166 E0.18772
G1 X123.542 Y111.166 E0.02790
G1 X123.542 Y116.096 E0.18772
G1 X124.275 Y116.096 E0.02790
G1 X124.275 Y111.166 E0.18772
G1 X125.008 Y111.166 E0.02790
G1 X125.008 Y116.096 E0.18772
G1 X125.740 Y116.096 E0.02790
G1 X125.740 Y111.166 E0.18772
G1 X126.473 Y111.166 E0.02790
G1 X126.473 Y116.096 E0.18772
G1 X127.206 Y116.096 E0.02790
G1 X127.206 Y111.166 E0.18772
G1 X127.939 Y111.166 E0.02790
G1 X127.939 Y116.096 E0.18772
G1 X128.671 Y116.096 E0.02790
G1 X128.671 Y111.166 E0.18772
G1 X128.859 Y111.166 E0.00716
G1 X128.859 Y108.870 E0.08744
G1 X129.404 Y108.870 E0.02073
G1 X129.404 Y116.096 E0.27516
G1 X130.137 Y116.096 E0.02790
G1 X130.137 Y108.870 E0.27516
G1 X130.869 Y108.870 E0.02790
G1 X130.869 Y116.261 E0.28144
G1 X122.195 Y110.968 F15000.000
G1 F1800
G1 X122.195 Y99.353 E0.35777
G1 X121.699 Y99.353 E0.01529
G1 X121.699 Y110.835 E0.35366
G1 X121.639 Y110.835 E0.00184
G1 X121.639 Y108.539 E0.07073
G1 X121.203 Y108.539 E0.01344
G1 X121.203 Y101.649 E0.21220
G1 X120.706 Y101.649 E0.01529
G1 X120.706 Y108.539 E0.21220
G1 X120.210 Y108.539 E0.01529
G1 X120.210 Y101.649 E0.21220
G1 X119.713 Y101.649 E0.01529
G1 X119.713 Y108.672 E0.21631
G1 X118.413 Y113.965 F15000.000
G1 F1800
G1 X118.413 Y96.388 E0.66927
G1 X117.681 Y96.388 E0.02790
G1 X117.681 Y113.800 E0.66299
G1 X116.948 Y113.800 E0.02790
G1 X116.948 Y96.388 E0.66299
G1 X116.378 Y96.388 E0.02172
G1 X116.378 Y98.685 E0.08744
G1 X116.215 Y98.685 E0.00618
G1 X116.215 Y111.503 E0.48811
G1 X115.483 Y111.503 E0.02790
G1 X115.483 Y98.685 E0.48811
G1 X114.750 Y98.685 E0.02790
G1 X114.750 Y111.668 E0.49439
G1 X124.142 Y105.574 F15000.000
G1 F1800
G1 X123.998 Y105.000 E0.02254
G1 X124.142 Y104.426 E0.02254
G1 X124.165 Y104.396 E0.00144
G1 X124.760 Y104.002 E0.02716
G1 X125.240 Y104.002 E0.01824
G1 X125.858 Y104.426 E0.02853
G1 X126.002 Y105.000 E0.02254
G1 X125.858 Y105.574 E0.02254
G1 X125.835 Y105.604 E0.00144
G1 X125.240 Y105.998 E0.02716
G1 X124.760 Y105.998 E0.01824
G1 X124.184 Y105.617 E0.02632
G1 X123.911 Y105.875 F15000.000
G1 F1800
G1 X123.805 Y105.735 E0.00667
G1 X123.621 Y105.000 E0.02886
G1 X123.805 Y104.265 E0.02886
G1 X123.911 Y104.125 E0.00667
G1 X124.650 Y103.636 E0.03376
G1 X125.350 Y103.636 E0.02663
G1 X126.089 Y104.125 E0.03376
G1 X126.195 Y104.265 E0.00667
G1 X126.379 Y105.000 E0.02886
G1 X126.195 Y105.735 E0.02886
G1 X126.089 Y105.875 E0.00667
G1 X125.350 Y106.364 E0.03376
G1 X124.650 Y106.364 E0.02663
G1 X123.961 Y105.908 E0.03148
G1 X123.946 Y105.703 F15000.000
G1 X124.184 Y104.711 F15000.000
G1 F1800
G1 X125.180 Y105.707 E0.05393
G1 X125.494 Y105.500 E0.01439
G1 X124.498 Y104.505 E0.05389
G1 X124.812 Y104.298 E0.01439
G1 X125.813 Y105.299 E0.05420
;BEFORE_LAYER_CHANGE
;0.45


G1 Z0.450 F15000.000
;AFTER_LAYER_CHANGE
;0.45
G1 X128.648 Y99.220 F15000.000
G1 F704
G1 X128.648 Y103.564 E0.11092
G1 X128.517 Y103.217 E0.00947
G1 X128.151 Y102.634 E0.01757
G1 X128.151 Y99.353 E0.08377
G1 X127.655 Y99.353 E0.01267
G1 X127.655 Y102.108 E0.07033
G1 X127.310 Y101.806 E0.01170
G1 X127.159 Y101.714 E0.00452
G1 X127.159 Y99.353 E0.06029
G1 X126.662 Y99.353 E0.01267
G1 X126.662 Y101.428 E0.05298
G1 X126.388 Y101.292 E0.00781
G1 X126.166 Y101.238 E0.00585
G1 X126.166 Y99.353 E0.04812
G1 X125.670 Y99.353 E0.01267
G1 X125.670 Y101.126 E0.04527
G1 X125.436 Y101.079 E0.00609
G1 X125.173 Y101.079 E0.00670
G1 X125.173 Y99.353 E0.04407
G1 X124.677 Y99.353 E0.01267
G1 X124.677 Y101.079 E0.04407
G1 X124.518 Y101.084 E0.00406
G1 X124.181 Y101.160 E0.00883
G1 X124.181 Y99.353 E0.04613
G1 X123.684 Y99.353 E0.01267
G1 X123.684 Y101.271 E0.04898
G1 X123.444 Y101.368 E0.00661
G1 X123.188 Y101.514 E0.00753
G1 X123.188 Y99.353 E0.05519
G1 X122.692 Y99.353 E0.01267
G1 X122.692 Y101.805 E0.06260
G1 X122.195 Y102.238 E0.01683
G1 X122.195 Y99.353 E0.07367
G1 X121.699 Y99.353 E0.01267
G1 X121.699 Y102.862 E0.08960
G1 X121.466 Y103.254 E0.01164
G1 X121.203 Y103.973 E0.01955
G1 X121.203 Y99.353 E0.11795
G1 X120.706 Y99.353 E0.01267
G1 X120.706 Y110.835 E0.29317
G1 X121.203 Y110.835 E0.01267
G1 X121.203 Y106.027 E0.12275
G1 X121.466 Y106.746 E0.01955
G1 X121.699 Y107.138 E0.01164
G1 X121.699 Y110.835 E0.09440
G1 X122.195 Y110.835 E0.01267
G1 X122.195 Y107.762 E0.07847
G1 X122.692 Y108.195 E0.01683
G1 X122.692 Y110.835 E0.06740
G1 X123.188 Y110.835 E0.01267
G1 X123.188 Y108.486 E0.05999
G1 X123.444 Y108.632 E0.00753
G1 X123.684 Y108.729 E0.00661
G1 X123.684 Y110.835 E0.05378
G1 X124.181 Y110.835 E0.01267
G1 X124.181 Y108.840 E0.05093
G1 X124.518 Y108.916 E0.00883
G1 X124.677 Y108.921 E0.00406
G1 X124.677 Y110.835 E0.04887
G1 X125.173 Y110.835 E0.01267
G1 X125.173 Y108.921 E0.04887
G1 X125.436 Y108.921 E0.00670
G1 X125.670 Y108.874 E0.00609
G1 X125.670 Y110.835 E0.05008
G1 X126.166 Y110.835 E0.01267
G1 X126.166 Y108.762 E0.05292
G1 X126.388 Y108.708 E0.00585
G1 X126.662 Y108.572 E0.00781
G1 X126.662 Y110.835 E0.05778
G1 X127.159 Y110.835 E0.01267
G1 X127.159 Y108.286 E0.06509
G1 X127.310 Y108.194 E0.00452
G1 X127.655 Y107.892 E0.01170
G1 X127.655 Y110.835 E0.07513
G1 X128.151 Y110.835 E0.01267
G1 X128.151 Y107.366 E0.08857
G1 X128.517 Y106.783 E0.01757
G1 X128.648 Y106.436 E0.00947
G1 X128.648 Y110.835 E0.11231
G1 X129.144 Y110.835 E0.01267
G1 X129.144 Y99.353 E0.29317
G1 X129.640 Y99.353 E0.01267
G1 X129.640 Y110.835 E0.29317
G1 X130.137 Y110.835 E0.01267
G1 X130.137 Y99.353 E0.29317
G1 X130.633 Y99.353 E0.01267
G1 X130.633 Y110.968 E0.29658
G1 X128.661 Y113.131 F15000.000
G1 F704
G1 X121.506 Y113.131 E0.18271
G1 X120.210 Y110.968 F15000.000
G1 F704
G1 X120.210 Y99.353 E0.29658
G1 X119.713 Y99.353 E0.01267
G1 X119.713 Y110.968 E0.29658
G1 X119.180 Y108.539 F15000.000
G1 F704
G1 X117.046 Y108.539 E0.05447
G1 X117.046 Y106.242 E0.05863
G1 X119.046 Y106.242 E0.05107
G1 X119.046 Y103.946 E0.05863
G1 X117.046 Y103.946 E0.05107
G1 X117.046 Y101.649 E0.05863
G1 X119.180 Y101.649 E0.05447
G1 X121.506 Y97.057 F15000.000
G1 F704
G1 X128.661 Y97.057 E0.18271
G1 X133.254 Y101.649 F15000.000
G1 F704
G1 X131.121 Y101.649 E0.05447
G1 X131.121 Y103.946 E0.05863
G1 X133.121 Y103.946 E0.05107
G1 X133.121 Y106.242 E0.05863
G1 X131.121 Y106.242 E0.05107
G1 X131.121 Y108.539 E0.05863
G1 X133.254 Y108.539 E0.05447
;BEFORE_LAYER_CHANGE
;0.5


G1 Z0.500 F15000.000
;AFTER_LAYER_CHANGE
;0.5
G1 X132.483 Y91.545 F15000.000
G1 F311
G1 X133.335 Y92.073 E0.03819
G1 X138.016 Y96.842 E0.25445
G1 X138.361 Y97.312 E0.02220
G1 X138.599 Y97.844 E0.02220
G1 X138.731 Y98.660 E0.03145
G1 X138.731 Y111.697 E0.49643
G1 X138.655 Y112.308 E0.02343
G1 X138.443 Y112.890 E0.02359
G1 X137.969 Y113.561 E0.03129
G1 X135.591 Y115.855 E0.12582
G1 X132.525 Y118.435 E0.15256
G1 X131.594 Y118.896 E0.03957
G1 X130.856 Y118.994 E0.02837
G1 X119.075 Y118.828 E0.44862
G1 X118.485 Y118.748 E0.02266
G1 X117.923 Y118.540 E0.02281
G1 X117.246 Y118.060 E0.03160
G1 X112.762 Y113.544 E0.24233
G1 X112.363 Y112.998 E0.02575
G1 X112.109 Y112.371 E0.02575
G1 X112.017 Y111.689 E0.02621
G1 X112.018 Y98.648 E0.49659
G1 X112.094 Y98.041 E0.02328
G1 X112.305 Y97.463 E0.02343
G1 X114.451 Y94.450 E0.14087
G1 X117.485 Y91.922 E0.15034
G1 X118.317 Y91.488 E0.03574
G1 X119.120 Y91.359 E0.03099
G1 X131.497 Y91.359 E0.47128
G1 X132.424 Y91.534 E0.03591
G1 X125.430 Y102.932 F15000.000
M204 S800
G1 F1800
G1 X125.974 Y103.095 E0.02375
G1 X126.611 Y103.606 E0.03414
G1 X126.701 Y103.715 E0.00589
G1 X127.034 Y104.386 E0.03130
G1 X127.135 Y105.000 E0.02601
G1 X127.034 Y105.614 E0.02601
G1 X126.701 Y106.285 E0.03130
G1 X126.611 Y106.394 E0.00589
G1 X125.975 Y106.904 E0.03410
G1 X125.322 Y107.098 E0.02846
G1 X124.678 Y107.098 E0.02694
G1 X124.025 Y106.904 E0.02846
G1 X123.389 Y106.394 E0.03410
G1 X123.299 Y106.285 E0.00589
G1 X122.966 Y105.614 E0.03130
G1 X122.865 Y105.000 E0.02601
G1 X122.966 Y104.386 E0.02601
G1 X123.299 Y103.715 E0.03130
G1 X123.388 Y103.608 E0.00581
G1 X124.054 Y103.080 E0.03554
G1 X124.674 Y102.902 E0.02698
G1 X125.372 Y102.915 E0.02917
M204 S1000
G1 X125.481 Y102.534 F15000.000
M204 S800
G1 F1800
G1 X126.162 Y102.738 E0.02970
G1 X126.891 Y103.323 E0.03907
G1 X127.036 Y103.498 E0.00950
G1 X127.415 Y104.263 E0.03567
G1 X127.537 Y105.000 E0.03122
G1 X127.415 Y105.737 E0.03122
G1 X127.036 Y106.502 E0.03567
G1 X126.891 Y106.677 E0.00950
G1 X126.162 Y107.262 E0.03906
G1 X125.380 Y107.494 E0.03411
G1 X124.620 Y107.494 E0.03176
G1 X123.838 Y107.262 E0.03411
G1 X123.109 Y106.677 E0.03906
G1 X122.964 Y106.502 E0.00950
G1 X122.585 Y105.737 E0.03567
G1 X122.463 Y105.000 E0.03122
G1 X122.585 Y104.263 E0.03122
G1 X122.964 Y103.498 E0.03567
G1 X123.108 Y103.323 E0.00948
G1 X123.869 Y102.720 E0.04058
G1 X124.619 Y102.506 E0.03259
G1 X125.424 Y102.518 E0.03364
M204 S1000
G1 X123.191 Y104.202 F15000.000
G1 F1800
G1 X123.191 Y105.117 E0.04835
G1 X123.258 Y105.520 E0.02157
G1 X123.555 Y106.119 E0.03533
G1 X123.643 Y106.210 E0.00667
G1 X123.643 Y103.791 E0.12772
G1 X124.096 Y103.433 E0.03047
G1 X124.096 Y106.572 E0.16578
G1 X124.168 Y106.630 E0.00493
G1 X124.548 Y106.743 E0.02091
G1 X124.548 Y103.253 E0.18432
G1 X124.717 Y103.205 E0.00930
G1 X125.000 Y103.205 E0.01494
G1 X125.000 Y106.795 E0.18961
G1 X125.278 Y106.795 E0.01469
G1 X125.452 Y106.743 E0.00959
G1 X125.452 Y103.255 E0.18424
G1 X125.831 Y103.369 E0.02087
G1 X125.904 Y103.428 E0.00499
G1 X125.904 Y106.572 E0.16607
G1 X126.356 Y106.210 E0.03061
G1 X126.356 Y103.790 E0.12778
G1 X126.445 Y103.881 E0.00668
G1 X126.742 Y104.480 E0.03533
G1 X126.809 Y104.882 E0.02154
G1 X126.809 Y105.799 E0.04839
;BEFORE_LAYER_CHANGE
;0.7


G1 Z0.700 F15000.000
;AFTER_LAYER_CHANGE
;0.7
G1 X129.144 Y110.968 F15000.000
G1 F609
G1 X129.144 Y106.894 E0.12549
G1 X128.998 Y107.200 E0.01043
G1 X128.772 Y107.571 E0.01338
G1 X128.648 Y107.722 E0.00603
